noritsu_look.cube
# Scanner look LUT (Noritsu-style) (display linear RGB 0-1)
# Generated from colorchecker_scan.json [look mode]
LUT_3D_SIZE 9
0.000000 0.000000 0.000000
0.112562 0.005568 0.000000
0.225125 0.011136 0.000000
0.337687 0.016704 0.000000
0.450250 0.022272 0.000000
0.562812 0.027841 0.000000
0.675375 0.033409 0.000000
0.787937 0.038977 0.000000
0.900500 0.044545 0.000000
0.001598 0.107146 0.022455
0.114160 0.112714 0.009668
0.226723 0.118283 0.000000
0.339285 0.123851 0.000000
0.451848 0.129419 0.000000
0.564410 0.134987 0.000000
0.676973 0.140555 0.000000
0.789535 0.146123 0.000000
0.902098 0.151691 0.000000
0.003196 0.214293 0.044911
0.115758 0.219861 0.032124
0.228321 0.225429 0.019337
0.340883 0.230997 0.006550
0.453446 0.236565 0.000000
0.566008 0.242133 0.000000
0.678570 0.247701 0.000000
0.791133 0.253270 0.000000
0.903695 0.258838 0.000000
0.004793 0.321439 0.067366
0.117356 0.327007 0.054579
0.229918 0.332575 0.041792
0.342481 0.338143 0.029005
0.455043 0.343712 0.016218
0.567606 0.349280 0.003431
0.680168 0.354848 0.000000
0.792731 0.360416 0.000000
0.905293 0.365984 0.000000
0.006391 0.428585 0.089822
0.118954 0.434154 0.077035
0.231516 0.439722 0.064248
0.344079 0.445290 0.051461
0.456641 0.450858 0.038673
0.569204 0.456426 0.025886
0.681766 0.461994 0.013099
0.794329 0.467562 0.000312
0.906891 0.473130 0.000000
0.007989 0.535732 0.112277
0.120552 0.541300 0.099490
0.233114 0.546868 0.086703
0.345676 0.552436 0.073916
0.458239 0.558004 0.061129
0.570801 0.563572 0.048342
0.683364 0.569140 0.035555
0.795926 0.574709 0.022768
0.908489 0.580277 0.009981
0.009587 0.642878 0.134733
0.122149 0.648446 0.121946
0.234712 0.654014 0.109159
0.347274 0.659582 0.096371
0.459837 0.665151 0.083584
0.572399 0.670719 0.070797
0.684962 0.676287 0.058010
0.797524 0.681855 0.045223
0.910087 0.687423 0.032436
0.011185 0.750025 0.157188
0.123747 0.755593 0.144401
0.236310 0.761161 0.131614
0.348872 0.766729 0.118827
0.461435 0.772297 0.106040
0.573997 0.777865 0.093253
0.686560 0.783433 0.080466
0.799122 0.789001 0.067679
0.911684 0.794569 0.054891
0.012782 0.857171 0.179644
0.125345 0.862739 0.166857
0.237907 0.868307 0.154069
0.350470 0.873875 0.141282
0.463032 0.879443 0.128495
0.575595 0.885011 0.115708
0.688157 0.890580 0.102921
0.800720 0.896148 0.090134
0.913282 0.901716 0.077347
0.015047 0.005731 0.081295
0.127609 0.011299 0.068508
0.240172 0.016867 0.055721
0.352734 0.022435 0.042933
0.465296 0.028003 0.030146
0.577859 0.033571 0.017359
0.690421 0.039140 0.004572
0.802984 0.044708 0.000000
0.915546 0.050276 0.000000
0.016644 0.112877 0.103750
0.129207 0.118445 0.090963
0.241769 0.124013 0.078176
0.354332 0.129582 0.065389
0.466894 0.135150 0.052602
0.579457 0.140718 0.039815
0.692019 0.146286 0.027028
0.804582 0.151854 0.014241
0.917144 0.157422 0.001453
0.018242 0.220024 0.126206
0.130805 0.225592 0.113419
0.243367 0.231160 0.100631
0.355930 0.236728 0.087844
0.468492 0.242296 0.075057
0.581055 0.247864 0.062270
0.693617 0.253432 0.049483
0.806180 0.259000 0.036696
0.918742 0.264568 0.023909
0.019840 0.327170 0.148661
0.132402 0.332738 0.135874
0.244965 0.338306 0.123087
0.357527 0.343874 0.110300
0.470090 0.349442 0.097513
0.582652 0.355010 0.084726
0.695215 0.360579 0.071939
0.807777 0.366147 0.059151
0.920340 0.371715 0.046364
0.021438 0.434316 0.171117
0.134000 0.439884 0.158329
0.246563 0.445452 0.145542
0.359125 0.451021 0.132755
0.471688 0.456589 0.119968
0.584250 0.462157 0.107181
0.696813 0.467725 0.094394
0.809375 0.473293 0.081607
0.921938 0.478861 0.068820
0.023036 0.541463 0.193572
0.135598 0.547031 0.180785
0.248161 0.552599 0.167998
0.360723 0.558167 0.155211
0.473286 0.563735 0.142424
0.585848 0.569303 0.129637
0.698410 0.574871 0.116849
0.810973 0.580439 0.104062
0.923535 0.586008 0.091275
0.024633 0.648609 0.216027
0.137196 0.654177 0.203240
0.249758 0.659745 0.190453
0.362321 0.665313 0.177666
0.474883 0.670881 0.164879
0.587446 0.676450 0.152092
0.700008 0.682018 0.139305
0.812571 0.687586 0.126518
0.925133 0.693154 0.113731
0.026231 0.755755 0.238483
0.138794 0.761323 0.225696
0.251356 0.766892 0.212909
0.363919 0.772460 0.200122
0.476481 0.778028 0.187335
0.589044 0.783596 0.174547
0.701606 0.789164 0.161760
0.814169 0.794732 0.148973
0.926731 0.800300 0.136186
0.027829 0.862902 0.260938
0.140392 0.868470 0.248151
0.252954 0.874038 0.235364
0.365516 0.879606 0.222577
0.478079 0.885174 0.209790
0.590641 0.890742 0.197003
0.703204 0.896310 0.184216
0.815766 0.901878 0.171429
0.928329 0.907447 0.158642
0.030093 0.011462 0.162590
0.142656 0.017030 0.149802
0.255218 0.022598 0.137015
0.367781 0.028166 0.124228
0.480343 0.033734 0.111441
0.592906 0.039302 0.098654
0.705468 0.044870 0.085867
0.818031 0.050438 0.073080
0.930593 0.056007 0.060293
0.031691 0.118608 0.185045
0.144253 0.124176 0.172258
0.256816 0.129744 0.159471
0.369378 0.135312 0.146684
0.481941 0.140880 0.133897
0.594503 0.146449 0.121110
0.707066 0.152017 0.108322
0.819628 0.157585 0.095535
0.932191 0.163153 0.082748
0.033289 0.225754 0.207500
0.145851 0.231322 0.194713
0.258414 0.236891 0.181926
0.370976 0.242459 0.169139
0.483539 0.248027 0.156352
0.596101 0.253595 0.143565
0.708664 0.259163 0.130778
0.821226 0.264731 0.117991
0.933789 0.270299 0.105204
0.034887 0.332901 0.229956
0.147449 0.338469 0.217169
0.260012 0.344037 0.204382
0.372574 0.349605 0.191595
0.485136 0.355173 0.178808
0.597699 0.360741 0.166020
0.710261 0.366309 0.153233
0.822824 0.371878 0.140446
0.935386 0.377446 0.127659
0.036484 0.440047 0.252411
0.149047 0.445615 0.239624
0.261609 0.451183 0.226837
0.374172 0.456751 0.214050
0.486734 0.462320 0.201263
0.599297 0.467888 0.188476
0.711859 0.473456 0.175689
0.824422 0.479024 0.162902
0.936984 0.484592 0.150115
0.038082 0.547193 0.274867
0.150645 0.552762 0.262080
0.263207 0.558330 0.249293
0.375770 0.563898 0.236506
0.488332 0.569466 0.223718
0.600895 0.575034 0.210931
0.713457 0.580602 0.198144
0.826020 0.586170 0.185357
0.938582 0.591738 0.172570
0.039680 0.654340 0.297322
0.152242 0.659908 0.284535
0.264805 0.665476 0.271748
0.377367 0.671044 0.258961
0.489930 0.676612 0.246174
0.602492 0.682180 0.233387
0.715055 0.687748 0.220600
0.827617 0.693317 0.207813
0.940180 0.698885 0.195026
0.041278 0.761486 0.319778
0.153840 0.767054 0.306991
0.266403 0.772622 0.294204
0.378965 0.778191 0.281416
0.491528 0.783759 0.268629
0.604090 0.789327 0.255842
0.716653 0.794895 0.243055
0.829215 0.800463 0.230268
0.941778 0.806031 0.217481
0.042876 0.868633 0.342233
0.155438 0.874201 0.329446
0.268001 0.879769 0.316659
0.380563 0.885337 0.303872
0.493126 0.890905 0.291085
0.605688 0.896473 0.278298
0.718250 0.902041 0.265511
0.830813 0.907609 0.252724
0.943375 0.913177 0.239936
0.045140 0.017192 0.243884
0.157702 0.022761 0.231097
0.270265 0.028329 0.218310
0.382827 0.033897 0.205523
0.495390 0.039465 0.192736
0.607952 0.045033 0.179949
0.720515 0.050601 0.167162
0.833077 0.056169 0.154375
0.945640 0.061737 0.141588
0.046738 0.124339 0.266340
0.159300 0.129907 0.253553
0.271862 0.135475 0.240766
0.384425 0.141043 0.227979
0.496987 0.146611 0.215191
0.609550 0.152179 0.202404
0.722112 0.157748 0.189617
0.834675 0.163316 0.176830
0.947237 0.168884 0.164043
0.048335 0.231485 0.288795
0.160898 0.237053 0.276008
0.273460 0.242621 0.263221
0.386023 0.248190 0.250434
0.498585 0.253758 0.237647
0.611148 0.259326 0.224860
0.723710 0.264894 0.212073
0.836273 0.270462 0.199286
0.948835 0.276030 0.186498
0.049933 0.338632 0.311251
0.162496 0.344200 0.298464
0.275058 0.349768 0.285676
0.387621 0.355336 0.272889
0.500183 0.360904 0.260102
0.612746 0.366472 0.247315
0.725308 0.372040 0.234528
0.837871 0.377608 0.221741
0.950433 0.383176 0.208954
0.051531 0.445778 0.333706
0.164093 0.451346 0.320919
0.276656 0.456914 0.308132
0.389218 0.462482 0.295345
0.501781 0.468050 0.282558
0.614343 0.473618 0.269771
0.726906 0.479187 0.256984
0.839468 0.484755 0.244196
0.952031 0.490323 0.231409
0.053129 0.552924 0.356162
0.165691 0.558492 0.343374
0.278254 0.564060 0.330587
0.390816 0.569629 0.317800
0.503379 0.575197 0.305013
0.615941 0.580765 0.292226
0.728504 0.586333 0.279439
0.841066 0.591901 0.266652
0.953629 0.597469 0.253865
0.054727 0.660071 0.378617
0.167289 0.665639 0.365830
0.279852 0.671207 0.353043
0.392414 0.676775 0.340256
0.504976 0.682343 0.327469
0.617539 0.687911 0.314682
0.730101 0.693479 0.301894
0.842664 0.699047 0.289107
0.955226 0.704616 0.276320
0.056324 0.767217 0.401072
0.168887 0.772785 0.388285
0.281449 0.778353 0.375498
0.394012 0.783921 0.362711
0.506574 0.789489 0.349924
0.619137 0.795058 0.337137
0.731699 0.800626 0.324350
0.844262 0.806194 0.311563
0.956824 0.811762 0.298776
0.057922 0.874363 0.423528
0.170485 0.879931 0.410741
0.283047 0.885500 0.397954
0.395610 0.891068 0.385167
0.508172 0.896636 0.372380
0.620735 0.902204 0.359592
0.733297 0.907772 0.346805
0.845860 0.913340 0.334018
0.958422 0.918908 0.321231
0.060186 0.022923 0.325179
0.172749 0.028491 0.312392
0.285311 0.034060 0.299605
0.397874 0.039628 0.286818
0.510436 0.045196 0.274031
0.622999 0.050764 0.261244
0.735561 0.056332 0.248457
0.848124 0.061900 0.235669
0.960686 0.067468 0.222882
0.061784 0.130070 0.347635
0.174347 0.135638 0.334847
0.286909 0.141206 0.322060
0.399472 0.146774 0.309273
0.512034 0.152342 0.296486
0.624597 0.157910 0.283699
0.737159 0.163478 0.270912
0.849721 0.169046 0.258125
0.962284 0.174615 0.245338
0.063382 0.237216 0.370090
0.175944 0.242784 0.357303
0.288507 0.248352 0.344516
0.401069 0.253920 0.331729
0.513632 0.259488 0.318942
0.626194 0.265057 0.306155
0.738757 0.270625 0.293367
0.851319 0.276193 0.280580
0.963882 0.281761 0.267793
0.064980 0.344362 0.392545
0.177542 0.349930 0.379758
0.290105 0.355499 0.366971
0.402667 0.361067 0.354184
0.515230 0.366635 0.341397
0.627792 0.372203 0.328610
0.740355 0.377771 0.315823
0.852917 0.383339 0.303036
0.965480 0.388907 0.290249
0.066578 0.451509 0.415001
0.179140 0.457077 0.402214
0.291702 0.462645 0.389427
0.404265 0.468213 0.376640
0.516827 0.473781 0.363853
0.629390 0.479349 0.351065
0.741952 0.484917 0.338278
0.854515 0.490486 0.325491
0.967077 0.496054 0.312704
0.068175 0.558655 0.437456
0.180738 0.564223 0.424669
0.293300 0.569791 0.411882
0.405863 0.575359 0.399095
0.518425 0.580928 0.386308
0.630988 0.586496 0.373521
0.743550 0.592064 0.360734
0.856113 0.597632 0.347947
0.968675 0.603200 0.335160
0.069773 0.665801 0.459912
0.182336 0.671370 0.447125
0.294898 0.676938 0.434338
0.407461 0.682506 0.421551
0.520023 0.688074 0.408763
0.632586 0.693642 0.395976
0.745148 0.699210 0.383189
0.857711 0.704778 0.370402
0.970273 0.710346 0.357615
0.071371 0.772948 0.482367
0.183933 0.778516 0.469580
0.296496 0.784084 0.456793
0.409058 0.789652 0.444006
0.521621 0.795220 0.431219
0.634183 0.800788 0.418432
0.746746 0.806356 0.405645
0.859308 0.811925 0.392858
0.971871 0.817493 0.380071
0.072969 0.880094 0.504823
0.185531 0.885662 0.492036
0.298094 0.891230 0.479249
0.410656 0.896799 0.466461
0.523219 0.902367 0.453674
0.635781 0.907935 0.440887
0.748344 0.913503 0.428100
0.860906 0.919071 0.415313
0.973469 0.924639 0.402526
0.075233 0.028654 0.406474
0.187795 0.034222 0.393687
0.300358 0.039790 0.380900
0.412920 0.045358 0.368113
0.525483 0.050927 0.355326
0.638045 0.056495 0.342538
0.750608 0.062063 0.329751
0.863170 0.067631 0.316964
0.975733 0.073199 0.304177
0.076831 0.135800 0.428929
0.189393 0.141369 0.416142
0.301956 0.146937 0.403355
0.414518 0.152505 0.390568
0.527081 0.158073 0.377781
0.639643 0.163641 0.364994
0.752206 0.169209 0.352207
0.864768 0.174777 0.339420
0.977331 0.180345 0.326633
0.078428 0.242947 0.451385
0.190991 0.248515 0.438598
0.303553 0.254083 0.425811
0.416116 0.259651 0.413024
0.528678 0.265219 0.400236
0.641241 0.270787 0.387449
0.753803 0.276356 0.374662
0.866366 0.281924 0.361875
0.978928 0.287492 0.349088
0.080026 0.350093 0.473840
0.192589 0.355661 0.461053
0.305151 0.361229 0.448266
0.417714 0.366798 0.435479
0.530276 0.372366 0.422692
0.642839 0.377934 0.409905
0.755401 0.383502 0.397118
0.867964 0.389070 0.384331
0.980526 0.394638 0.371543
0.081624 0.457240 0.496296
0.194187 0.462808 0.483509
0.306749 0.468376 0.470722
0.419312 0.473944 0.457934
0.531874 0.479512 0.445147
0.644437 0.485080 0.432360
0.756999 0.490648 0.419573
0.869561 0.496216 0.406786
0.982124 0.501784 0.393999
0.083222 0.564386 0.518751
0.195784 0.569954 0.505964
0.308347 0.575522 0.493177
0.420909 0.581090 0.480390
0.533472 0.586658 0.467603
0.646034 0.592226 0.454816
0.758597 0.597795 0.442029
0.871159 0.603363 0.429241
0.983722 0.608931 0.416454
0.084820 0.671532 0.541207
0.197382 0.677100 0.528419
0.309945 0.682669 0.515632
0.422507 0.688237 0.502845
0.535070 0.693805 0.490058
0.647632 0.699373 0.477271
0.760195 0.704941 0.464484
0.872757 0.710509 0.451697
0.985320 0.716077 0.438910
0.086418 0.778679 0.563662
0.198980 0.784247 0.550875
0.311542 0.789815 0.538088
0.424105 0.795383 0.525301
0.536667 0.800951 0.512514
0.649230 0.806519 0.499727
0.761792 0.812087 0.486939
0.874355 0.817655 0.474152
0.986917 0.823224 0.461365
0.088015 0.885825 0.586117
0.200578 0.891393 0.573330
0.313140 0.896961 0.560543
0.425703 0.902529 0.547756
0.538265 0.908097 0.534969
0.650828 0.913666 0.522182
0.763390 0.919234 0.509395
0.875953 0.924802 0.496608
0.988515 0.930370 0.483821
0.090279 0.034385 0.487769
0.202842 0.039953 0.474982
0.315404 0.045521 0.462194
0.427967 0.051089 0.449407
0.540529 0.056657 0.436620
0.653092 0.062226 0.423833
0.765654 0.067794 0.411046
0.878217 0.073362 0.398259
0.990779 0.078930 0.385472
0.091877 0.141531 0.510224
0.204440 0.147099 0.497437
0.317002 0.152668 0.484650
0.429565 0.158236 0.471863
0.542127 0.163804 0.459076
0.654690 0.169372 0.446289
0.767252 0.174940 0.433502
0.879815 0.180508 0.420714
0.992377 0.186076 0.407927
0.093475 0.248678 0.532680
0.206038 0.254246 0.519892
0.318600 0.259814 0.507105
0.431163 0.265382 0.494318
0.543725 0.270950 0.481531
0.656287 0.276518 0.468744
0.768850 0.282086 0.455957
0.881412 0.287654 0.443170
0.993975 0.293223 0.430383
0.095073 0.355824 0.555135
0.207635 0.361392 0.542348
0.320198 0.366960 0.529561
0.432760 0.372528 0.516774
0.545323 0.378096 0.503987
0.657885 0.383665 0.491200
0.770448 0.389233 0.478412
0.883010 0.394801 0.465625
0.995573 0.400369 0.452838
0.096671 0.462970 0.577590
0.209233 0.468538 0.564803
0.321796 0.474107 0.552016
0.434358 0.479675 0.539229
0.546921 0.485243 0.526442
0.659483 0.490811 0.513655
0.772046 0.496379 0.500868
0.884608 0.501947 0.488081
0.997171 0.507515 0.475294
0.098268 0.570117 0.600046
0.210831 0.575685 0.587259
0.323393 0.581253 0.574472
0.435956 0.586821 0.561685
0.548518 0.592389 0.548898
0.661081 0.597957 0.536110
0.773643 0.603525 0.523323
0.886206 0.609094 0.510536
0.998768 0.614662 0.497749
0.099866 0.677263 0.622501
0.212429 0.682831 0.609714
0.324991 0.688399 0.596927
0.437554 0.693967 0.584140
0.550116 0.699536 0.571353
0.662679 0.705104 0.558566
0.775241 0.710672 0.545779
0.887804 0.716240 0.532992
1.000000 0.721808 0.520205
0.101464 0.784409 0.644957
0.214027 0.789978 0.632170
0.326589 0.795546 0.619383
0.439152 0.801114 0.606596
0.551714 0.806682 0.593808
0.664277 0.812250 0.581021
0.776839 0.817818 0.568234
0.889401 0.823386 0.555447
1.000000 0.828954 0.542660
0.103062 0.891556 0.667412
0.215624 0.897124 0.654625
0.328187 0.902692 0.641838
0.440749 0.908260 0.629051
0.553312 0.913828 0.616264
0.665874 0.919396 0.603477
0.778437 0.924965 0.590690
0.890999 0.930533 0.577903
1.000000 0.936101 0.565116
0.105326 0.040116 0.569063
0.217889 0.045684 0.556276
0.330451 0.051252 0.543489
0.443013 0.056820 0.530702
0.555576 0.062388 0.517915
0.668138 0.067956 0.505128
0.780701 0.073524 0.492341
0.893263 0.079093 0.479554
1.000000 0.084661 0.466767
0.106924 0.147262 0.591519
0.219486 0.152830 0.578732
0.332049 0.158398 0.565945
0.444611 0.163966 0.553158
0.557174 0.169535 0.540371
0.669736 0.175103 0.527583
0.782299 0.180671 0.514796
0.894861 0.186239 0.502009
1.000000 0.191807 0.489222
0.108522 0.254408 0.613974
0.221084 0.259977 0.601187
0.333647 0.265545 0.588400
0.446209 0.271113 0.575613
0.558772 0.276681 0.562826
0.671334 0.282249 0.550039
0.783897 0.287817 0.537252
0.896459 0.293385 0.524465
1.000000 0.298953 0.511678
0.110119 0.361555 0.636430
0.222682 0.367123 0.623643
0.335244 0.372691 0.610856
0.447807 0.378259 0.598069
0.560369 0.383827 0.585281
0.672932 0.389395 0.572494
0.785494 0.394964 0.559707
0.898057 0.400532 0.546920
1.000000 0.406100 0.534133
0.111717 0.468701 0.658885
0.224280 0.474269 0.646098
0.336842 0.479837 0.633311
0.449405 0.485406 0.620524
0.561967 0.490974 0.607737
0.674530 0.496542 0.594950
0.787092 0.502110 0.582163
0.899655 0.507678 0.569376
1.000000 0.513246 0.556589
0.113315 0.575848 0.681341
0.225878 0.581416 0.668554
0.338440 0.586984 0.655767
0.451003 0.592552 0.642979
0.563565 0.598120 0.630192
0.676127 0.603688 0.617405
0.788690 0.609256 0.604618
0.901252 0.614824 0.591831
1.000000 0.620392 0.579044
0.114913 0.682994 0.703796
0.227475 0.688562 0.691009
0.340038 0.694130 0.678222
0.452600 0.699698 0.665435
0.565163 0.705266 0.652648
0.677725 0.710834 0.639861
0.790288 0.716403 0.627074
0.902850 0.721971 0.614286
1.000000 0.727539 0.601499
0.116511 0.790140 0.726252
0.229073 0.795708 0.713465
0.341636 0.801277 0.700677
0.454198 0.806845 0.687890
0.566761 0.812413 0.675103
0.679323 0.817981 0.662316
0.791886 0.823549 0.649529
0.904448 0.829117 0.636742
1.000000 0.834685 0.623955
0.118108 0.897287 0.748707
0.230671 0.902855 0.735920
0.343233 0.908423 0.723133
0.455796 0.913991 0.710346
0.568358 0.919559 0.697559
0.680921 0.925127 0.684772
0.793483 0.930695 0.671984
0.906046 0.936263 0.659197
1.000000 0.941832 0.646410
0.120373 0.045847 0.650358
0.232935 0.051415 0.637571
0.345498 0.056983 0.624784
0.458060 0.062551 0.611997
0.570623 0.068119 0.599210
0.683185 0.073687 0.586423
0.795747 0.079255 0.573636
0.908310 0.084823 0.560849
1.000000 0.090392 0.548061
0.121970 0.152993 0.672814
0.234533 0.158561 0.660027
0.347095 0.164129 0.647239
0.459658 0.169697 0.634452
0.572220 0.175265 0.621665
0.684783 0.180834 0.608878
0.797345 0.186402 0.596091
0.909908 0.191970 0.583304
1.000000 0.197538 0.570517
0.123568 0.260139 0.695269
0.236131 0.265707 0.682482
0.348693 0.271276 0.669695
0.461256 0.276844 0.656908
0.573818 0.282412 0.644121
0.686381 0.287980 0.631334
0.798943 0.293548 0.618547
0.911506 0.299116 0.605759
1.000000 0.304684 0.592972
0.125166 0.367286 0.717725
0.237729 0.372854 0.704937
0.350291 0.378422 0.692150
0.462853 0.383990 0.679363
0.575416 0.389558 0.666576
0.687978 0.395126 0.653789
0.800541 0.400694 0.641002
0.913103 0.406262 0.628215
1.000000 0.411831 0.615428
0.126764 0.474432 0.740180
0.239326 0.480000 0.727393
0.351889 0.485568 0.714606
0.464451 0.491136 0.701819
0.577014 0.496704 0.689032
0.689576 0.502273 0.676245
0.802139 0.507841 0.663457
0.914701 0.513409 0.650670
1.000000 0.518977 0.637883
0.128362 0.581578 0.762635
0.240924 0.587147 0.749848
0.353487 0.592715 0.737061
0.466049 0.598283 0.724274
0.578612 0.603851 0.711487
0.691174 0.609419 0.698700
0.803737 0.614987 0.685913
0.916299 0.620555 0.673126
1.000000 0.626123 0.660339
0.129959 0.688725 0.785091
0.242522 0.694293 0.772304
0.355084 0.699861 0.759517
0.467647 0.705429 0.746730
0.580209 0.710997 0.733943
0.692772 0.716565 0.721155
0.805334 0.722133 0.708368
0.917897 0.727702 0.695581
1.000000 0.733270 0.682794
0.131557 0.795871 0.807546
0.244120 0.801439 0.794759
0.356682 0.807007 0.781972
0.469245 0.812575 0.769185
0.581807 0.818144 0.756398
0.694370 0.823712 0.743611
0.806932 0.829280 0.730824
0.919495 0.834848 0.718037
1.000000 0.840416 0.705250
0.133155 0.903017 0.830002
0.245718 0.908586 0.817215
0.358280 0.914154 0.804428
0.470843 0.919722 0.791641
0.583405 0.925290 0.778853
0.695967 0.930858 0.766066
0.808530 0.936426 0.753279
0.921092 0.941994 0.740492
1.000000 0.947562 0.727705
