noritsu_look.cube
# Scanner look LUT (Noritsu-style) (display linear RGB 0-1)
# Generated from colorchecker_scan.json [look mode]
LUT_3D_SIZE 5
0.000000 0.000000 0.000000
0.225125 0.011136 0.000000
0.450250 0.022272 0.000000
0.675375 0.033409 0.000000
0.900500 0.044545 0.000000
0.003196 0.214293 0.044911
0.228321 0.225429 0.019337
0.453446 0.236565 0.000000
0.678570 0.247701 0.000000
0.903695 0.258838 0.000000
0.006391 0.428585 0.089822
0.231516 0.439722 0.064248
0.456641 0.450858 0.038673
0.681766 0.461994 0.013099
0.906891 0.473130 0.000000
0.009587 0.642878 0.134733
0.234712 0.654014 0.109159
0.459837 0.665151 0.083584
0.684962 0.676287 0.058010
0.910087 0.687423 0.032436
0.012782 0.857171 0.179644
0.237907 0.868307 0.154069
0.463032 0.879443 0.128495
0.688157 0.890580 0.102921
0.913282 0.901716 0.077347
0.030093 0.011462 0.162590
0.255218 0.022598 0.137015
0.480343 0.033734 0.111441
0.705468 0.044870 0.085867
0.930593 0.056007 0.060293
0.033289 0.225754 0.207500
0.258414 0.236891 0.181926
0.483539 0.248027 0.156352
0.708664 0.259163 0.130778
0.933789 0.270299 0.105204
0.036484 0.440047 0.252411
0.261609 0.451183 0.226837
0.486734 0.462320 0.201263
0.711859 0.473456 0.175689
0.936984 0.484592 0.150115
0.039680 0.654340 0.297322
0.264805 0.665476 0.271748
0.489930 0.676612 0.246174
0.715055 0.687748 0.220600
0.940180 0.698885 0.195026
0.042876 0.868633 0.342233
0.268001 0.879769 0.316659
0.493126 0.890905 0.291085
0.718250 0.902041 0.265511
0.943375 0.913177 0.239936
0.060186 0.022923 0.325179
0.285311 0.034060 0.299605
0.510436 0.045196 0.274031
0.735561 0.056332 0.248457
0.960686 0.067468 0.222882
0.063382 0.237216 0.370090
0.288507 0.248352 0.344516
0.513632 0.259488 0.318942
0.738757 0.270625 0.293367
0.963882 0.281761 0.267793
0.066578 0.451509 0.415001
0.291702 0.462645 0.389427
0.516827 0.473781 0.363853
0.741952 0.484917 0.338278
0.967077 0.496054 0.312704
0.069773 0.665801 0.459912
0.294898 0.676938 0.434338
0.520023 0.688074 0.408763
0.745148 0.699210 0.383189
0.970273 0.710346 0.357615
0.072969 0.880094 0.504823
0.298094 0.891230 0.479249
0.523219 0.902367 0.453674
0.748344 0.913503 0.428100
0.973469 0.924639 0.402526
0.090279 0.034385 0.487769
0.315404 0.045521 0.462194
0.540529 0.056657 0.436620
0.765654 0.067794 0.411046
0.990779 0.078930 0.385472
0.093475 0.248678 0.532680
0.318600 0.259814 0.507105
0.543725 0.270950 0.481531
0.768850 0.282086 0.455957
0.993975 0.293223 0.430383
0.096671 0.462970 0.577590
0.321796 0.474107 0.552016
0.546921 0.485243 0.526442
0.772046 0.496379 0.500868
0.997171 0.507515 0.475294
0.099866 0.677263 0.622501
0.324991 0.688399 0.596927
0.550116 0.699536 0.571353
0.775241 0.710672 0.545779
1.000000 0.721808 0.520205
0.103062 0.891556 0.667412
0.328187 0.902692 0.641838
0.553312 0.913828 0.616264
0.778437 0.924965 0.590690
1.000000 0.936101 0.565116
0.120373 0.045847 0.650358
0.345498 0.056983 0.624784
0.570623 0.068119 0.599210
0.795747 0.079255 0.573636
1.000000 0.090392 0.548061
0.123568 0.260139 0.695269
0.348693 0.271276 0.669695
0.573818 0.282412 0.644121
0.798943 0.293548 0.618547
1.000000 0.304684 0.592972
0.126764 0.474432 0.740180
0.351889 0.485568 0.714606
0.577014 0.496704 0.689032
0.802139 0.507841 0.663457
1.000000 0.518977 0.637883
0.129959 0.688725 0.785091
0.355084 0.699861 0.759517
0.580209 0.710997 0.733943
0.805334 0.722133 0.708368
1.000000 0.733270 0.682794
0.133155 0.903017 0.830002
0.358280 0.914154 0.804428
0.583405 0.925290 0.778853
0.808530 0.936426 0.753279
1.000000 0.947562 0.727705
