noritsu_look.cube
# Scanner look LUT (Noritsu-style) (display linear RGB 0-1)
# Generated from colorchecker_scan.json [look mode]
LUT_3D_SIZE 17
0.000000 0.000000 0.000000
0.056281 0.002784 0.000000
0.112562 0.005568 0.000000
0.168844 0.008352 0.000000
0.225125 0.011136 0.000000
0.281406 0.013920 0.000000
0.337687 0.016704 0.000000
0.393969 0.019488 0.000000
0.450250 0.022272 0.000000
0.506531 0.025057 0.000000
0.562812 0.027841 0.000000
0.619094 0.030625 0.000000
0.675375 0.033409 0.000000
0.731656 0.036193 0.000000
0.787937 0.038977 0.000000
0.844219 0.041761 0.000000
0.900500 0.044545 0.000000
0.000799 0.053573 0.011228
0.057080 0.056357 0.004834
0.113361 0.059141 0.000000
0.169643 0.061925 0.000000
0.225924 0.064709 0.000000
0.282205 0.067493 0.000000
0.338486 0.070278 0.000000
0.394768 0.073062 0.000000
0.451049 0.075846 0.000000
0.507330 0.078630 0.000000
0.563611 0.081414 0.000000
0.619893 0.084198 0.000000
0.676174 0.086982 0.000000
0.732455 0.089766 0.000000
0.788736 0.092550 0.000000
0.845017 0.095334 0.000000
0.901299 0.098118 0.000000
0.001598 0.107146 0.022455
0.057879 0.109930 0.016062
0.114160 0.112714 0.009668
0.170442 0.115499 0.003275
0.226723 0.118283 0.000000
0.283004 0.121067 0.000000
0.339285 0.123851 0.000000
0.395566 0.126635 0.000000
0.451848 0.129419 0.000000
0.508129 0.132203 0.000000
0.564410 0.134987 0.000000
0.620691 0.137771 0.000000
0.676973 0.140555 0.000000
0.733254 0.143339 0.000000
0.789535 0.146123 0.000000
0.845816 0.148907 0.000000
0.902098 0.151691 0.000000
0.002397 0.160720 0.033683
0.058678 0.163504 0.027290
0.114959 0.166288 0.020896
0.171240 0.169072 0.014503
0.227522 0.171856 0.008109
0.283803 0.174640 0.001715
0.340084 0.177424 0.000000
0.396365 0.180208 0.000000
0.452647 0.182992 0.000000
0.508928 0.185776 0.000000
0.565209 0.188560 0.000000
0.621490 0.191344 0.000000
0.677772 0.194128 0.000000
0.734053 0.196912 0.000000
0.790334 0.199696 0.000000
0.846615 0.202480 0.000000
0.902897 0.205264 0.000000
0.003196 0.214293 0.044911
0.059477 0.217077 0.038517
0.115758 0.219861 0.032124
0.172039 0.222645 0.025730
0.228321 0.225429 0.019337
0.284602 0.228213 0.012943
0.340883 0.230997 0.006550
0.397164 0.233781 0.000156
0.453446 0.236565 0.000000
0.509727 0.239349 0.000000
0.566008 0.242133 0.000000
0.622289 0.244917 0.000000
0.678570 0.247701 0.000000
0.734852 0.250485 0.000000
0.791133 0.253270 0.000000
0.847414 0.256054 0.000000
0.903695 0.258838 0.000000
0.003995 0.267866 0.056139
0.060276 0.270650 0.049745
0.116557 0.273434 0.043352
0.172838 0.276218 0.036958
0.229119 0.279002 0.030564
0.285401 0.281786 0.024171
0.341682 0.284570 0.017777
0.397963 0.287354 0.011384
0.454244 0.290138 0.004990
0.510526 0.292922 0.000000
0.566807 0.295706 0.000000
0.623088 0.298491 0.000000
0.679369 0.301275 0.000000
0.735651 0.304059 0.000000
0.791932 0.306843 0.000000
0.848213 0.309627 0.000000
0.904494 0.312411 0.000000
0.004793 0.321439 0.067366
0.061075 0.324223 0.060973
0.117356 0.327007 0.054579
0.173637 0.329791 0.048186
0.229918 0.332575 0.041792
0.286200 0.335359 0.035399
0.342481 0.338143 0.029005
0.398762 0.340927 0.022612
0.455043 0.343712 0.016218
0.511325 0.346496 0.009824
0.567606 0.349280 0.003431
0.623887 0.352064 0.000000
0.680168 0.354848 0.000000
0.736450 0.357632 0.000000
0.792731 0.360416 0.000000
0.849012 0.363200 0.000000
0.905293 0.365984 0.000000
0.005592 0.375012 0.078594
0.061874 0.377796 0.072201
0.118155 0.380580 0.065807
0.174436 0.383364 0.059413
0.230717 0.386148 0.053020
0.286999 0.388933 0.046626
0.343280 0.391717 0.040233
0.399561 0.394501 0.033839
0.455842 0.397285 0.027446
0.512123 0.400069 0.021052
0.568405 0.402853 0.014659
0.624686 0.405637 0.008265
0.680967 0.408421 0.001872
0.737248 0.411205 0.000000
0.793530 0.413989 0.000000
0.849811 0.416773 0.000000
0.906092 0.419557 0.000000
0.006391 0.428585 0.089822
0.062672 0.431369 0.083428
0.118954 0.434154 0.077035
0.175235 0.436938 0.070641
0.231516 0.439722 0.064248
0.287797 0.442506 0.057854
0.344079 0.445290 0.051461
0.400360 0.448074 0.045067
0.456641 0.450858 0.038673
0.512922 0.453642 0.032280
0.569204 0.456426 0.025886
0.625485 0.459210 0.019493
0.681766 0.461994 0.013099
0.738047 0.464778 0.006706
0.794329 0.467562 0.000312
0.850610 0.470346 0.000000
0.906891 0.473130 0.000000
0.007190 0.482159 0.101050
0.063471 0.484943 0.094656
0.119753 0.487727 0.088262
0.176034 0.490511 0.081869
0.232315 0.493295 0.075475
0.288596 0.496079 0.069082
0.344878 0.498863 0.062688
0.401159 0.501647 0.056295
0.457440 0.504431 0.049901
0.513721 0.507215 0.043508
0.570003 0.509999 0.037114
0.626284 0.512783 0.030721
0.682565 0.515567 0.024327
0.738846 0.518351 0.017933
0.795127 0.521135 0.011540
0.851409 0.523919 0.005146
0.907690 0.526704 0.000000
0.007989 0.535732 0.112277
0.064270 0.538516 0.105884
0.120552 0.541300 0.099490
0.176833 0.544084 0.093097
0.233114 0.546868 0.086703
0.289395 0.549652 0.080310
0.345676 0.552436 0.073916
0.401958 0.555220 0.067522
0.458239 0.558004 0.061129
0.514520 0.560788 0.054735
0.570801 0.563572 0.048342
0.627083 0.566356 0.041948
0.683364 0.569140 0.035555
0.739645 0.571925 0.029161
0.795926 0.574709 0.022768
0.852208 0.577493 0.016374
0.908489 0.580277 0.009981
0.008788 0.589305 0.123505
0.065069 0.592089 0.117111
0.121350 0.594873 0.110718
0.177632 0.597657 0.104324
0.233913 0.600441 0.097931
0.290194 0.603225 0.091537
0.346475 0.606009 0.085144
0.402757 0.608793 0.078750
0.459038 0.611577 0.072357
0.515319 0.614361 0.065963
0.571600 0.617146 0.059570
0.627882 0.619930 0.053176
0.684163 0.622714 0.046782
0.740444 0.625498 0.040389
0.796725 0.628282 0.033995
0.853007 0.631066 0.027602
0.909288 0.633850 0.021208
0.009587 0.642878 0.134733
0.065868 0.645662 0.128339
0.122149 0.648446 0.121946
0.178431 0.651230 0.115552
0.234712 0.654014 0.109159
0.290993 0.656798 0.102765
0.347274 0.659582 0.096371
0.403556 0.662367 0.089978
0.459837 0.665151 0.083584
0.516118 0.667935 0.077191
0.572399 0.670719 0.070797
0.628680 0.673503 0.064404
0.684962 0.676287 0.058010
0.741243 0.679071 0.051617
0.797524 0.681855 0.045223
0.853805 0.684639 0.038830
0.910087 0.687423 0.032436
0.010386 0.696451 0.145960
0.066667 0.699235 0.139567
0.122948 0.702019 0.133173
0.179229 0.704804 0.126780
0.235511 0.707588 0.120386
0.291792 0.710372 0.113993
0.348073 0.713156 0.107599
0.404354 0.715940 0.101206
0.460636 0.718724 0.094812
0.516917 0.721508 0.088419
0.573198 0.724292 0.082025
0.629479 0.727076 0.075631
0.685761 0.729860 0.069238
0.742042 0.732644 0.062844
0.798323 0.735428 0.056451
0.854604 0.738212 0.050057
0.910886 0.740996 0.043664
0.011185 0.750025 0.157188
0.067466 0.752809 0.150795
0.123747 0.755593 0.144401
0.180028 0.758377 0.138008
0.236310 0.761161 0.131614
0.292591 0.763945 0.125220
0.348872 0.766729 0.118827
0.405153 0.769513 0.112433
0.461435 0.772297 0.106040
0.517716 0.775081 0.099646
0.573997 0.777865 0.093253
0.630278 0.780649 0.086859
0.686560 0.783433 0.080466
0.742841 0.786217 0.074072
0.799122 0.789001 0.067679
0.855403 0.791785 0.061285
0.911684 0.794569 0.054891
0.011984 0.803598 0.168416
0.068265 0.806382 0.162022
0.124546 0.809166 0.155629
0.180827 0.811950 0.149235
0.237109 0.814734 0.142842
0.293390 0.817518 0.136448
0.349671 0.820302 0.130055
0.405952 0.823086 0.123661
0.462233 0.825870 0.117268
0.518515 0.828654 0.110874
0.574796 0.831438 0.104480
0.631077 0.834222 0.098087
0.687358 0.837006 0.091693
0.743640 0.839790 0.085300
0.799921 0.842574 0.078906
0.856202 0.845359 0.072513
0.912483 0.848143 0.066119
0.012782 0.857171 0.179644
0.069064 0.859955 0.173250
0.125345 0.862739 0.166857
0.181626 0.865523 0.160463
0.237907 0.868307 0.154069
0.294189 0.871091 0.147676
0.350470 0.873875 0.141282
0.406751 0.876659 0.134889
0.463032 0.879443 0.128495
0.519314 0.882227 0.122102
0.575595 0.885011 0.115708
0.631876 0.887795 0.109315
0.688157 0.890580 0.102921
0.744439 0.893364 0.096528
0.800720 0.896148 0.090134
0.857001 0.898932 0.083740
0.913282 0.901716 0.077347
0.007523 0.002865 0.040647
0.063805 0.005649 0.034254
0.120086 0.008434 0.027860
0.176367 0.011218 0.021467
0.232648 0.014002 0.015073
0.288929 0.016786 0.008680
0.345211 0.019570 0.002286
0.401492 0.022354 0.000000
0.457773 0.025138 0.000000
0.514054 0.027922 0.000000
0.570336 0.030706 0.000000
0.626617 0.033490 0.000000
0.682898 0.036274 0.000000
0.739179 0.039058 0.000000
0.795461 0.041842 0.000000
0.851742 0.044626 0.000000
0.908023 0.047410 0.000000
0.008322 0.056439 0.051875
0.064603 0.059223 0.045482
0.120885 0.062007 0.039088
0.177166 0.064791 0.032694
0.233447 0.067575 0.026301
0.289728 0.070359 0.019907
0.346010 0.073143 0.013514
0.402291 0.075927 0.007120
0.458572 0.078711 0.000727
0.514853 0.081495 0.000000
0.571135 0.084279 0.000000
0.627416 0.087063 0.000000
0.683697 0.089847 0.000000
0.739978 0.092631 0.000000
0.796260 0.095415 0.000000
0.852541 0.098199 0.000000
0.908822 0.100984 0.000000
0.009121 0.110012 0.063103
0.065402 0.112796 0.056709
0.121684 0.115580 0.050316
0.177965 0.118364 0.043922
0.234246 0.121148 0.037529
0.290527 0.123932 0.031135
0.346809 0.126716 0.024742
0.403090 0.129500 0.018348
0.459371 0.132284 0.011954
0.515652 0.135068 0.005561
0.571933 0.137852 0.000000
0.628215 0.140636 0.000000
0.684496 0.143420 0.000000
0.740777 0.146205 0.000000
0.797058 0.148989 0.000000
0.853340 0.151773 0.000000
0.909621 0.154557 0.000000
0.009920 0.163585 0.074331
0.066201 0.166369 0.067937
0.122482 0.169153 0.061543
0.178764 0.171937 0.055150
0.235045 0.174721 0.048756
0.291326 0.177505 0.042363
0.347607 0.180289 0.035969
0.403889 0.183073 0.029576
0.460170 0.185857 0.023182
0.516451 0.188641 0.016789
0.572732 0.191426 0.010395
0.629014 0.194210 0.004002
0.685295 0.196994 0.000000
0.741576 0.199778 0.000000
0.797857 0.202562 0.000000
0.854139 0.205346 0.000000
0.910420 0.208130 0.000000
0.010719 0.217158 0.085558
0.067000 0.219942 0.079165
0.123281 0.222726 0.072771
0.179563 0.225510 0.066378
0.235844 0.228294 0.059984
0.292125 0.231078 0.053591
0.348406 0.233862 0.047197
0.404688 0.236647 0.040803
0.460969 0.239431 0.034410
0.517250 0.242215 0.028016
0.573531 0.244999 0.021623
0.629813 0.247783 0.015229
0.686094 0.250567 0.008836
0.742375 0.253351 0.002442
0.798656 0.256135 0.000000
0.854937 0.258919 0.000000
0.911219 0.261703 0.000000
0.011518 0.270731 0.096786
0.067799 0.273515 0.090392
0.124080 0.276299 0.083999
0.180362 0.279083 0.077605
0.236643 0.281868 0.071212
0.292924 0.284652 0.064818
0.349205 0.287436 0.058425
0.405486 0.290220 0.052031
0.461768 0.293004 0.045638
0.518049 0.295788 0.039244
0.574330 0.298572 0.032851
0.630611 0.301356 0.026457
0.686893 0.304140 0.020063
0.743174 0.306924 0.013670
0.799455 0.309708 0.007276
0.855736 0.312492 0.000883
0.912018 0.315276 0.000000
0.012317 0.324304 0.108014
0.068598 0.327089 0.101620
0.124879 0.329873 0.095227
0.181160 0.332657 0.088833
0.237442 0.335441 0.082440
0.293723 0.338225 0.076046
0.350004 0.341009 0.069652
0.406285 0.343793 0.063259
0.462567 0.346577 0.056865
0.518848 0.349361 0.050472
0.575129 0.352145 0.044078
0.631410 0.354929 0.037685
0.687692 0.357713 0.031291
0.743973 0.360497 0.024898
0.800254 0.363281 0.018504
0.856535 0.366065 0.012111
0.912817 0.368849 0.005717
0.013116 0.377878 0.119241
0.069397 0.380662 0.112848
0.125678 0.383446 0.106454
0.181959 0.386230 0.100061
0.238241 0.389014 0.093667
0.294522 0.391798 0.087274
0.350803 0.394582 0.080880
0.407084 0.397366 0.074487
0.463366 0.400150 0.068093
0.519647 0.402934 0.061700
0.575928 0.405718 0.055306
0.632209 0.408502 0.048912
0.688490 0.411286 0.042519
0.744772 0.414070 0.036125
0.801053 0.416854 0.029732
0.857334 0.419639 0.023338
0.913615 0.422423 0.016945
0.013915 0.431451 0.130469
0.070196 0.434235 0.124076
0.126477 0.437019 0.117682
0.182758 0.439803 0.111289
0.239039 0.442587 0.104895
0.295321 0.445371 0.098501
0.351602 0.448155 0.092108
0.407883 0.450939 0.085714
0.464164 0.453723 0.079321
0.520446 0.456507 0.072927
0.576727 0.459291 0.066534
0.633008 0.462075 0.060140
0.689289 0.464860 0.053747
0.745571 0.467644 0.047353
0.801852 0.470428 0.040960
0.858133 0.473212 0.034566
0.914414 0.475996 0.028172
0.014713 0.485024 0.141697
0.070995 0.487808 0.135303
0.127276 0.490592 0.128910
0.183557 0.493376 0.122516
0.239838 0.496160 0.116123
0.296120 0.498944 0.109729
0.352401 0.501728 0.103336
0.408682 0.504512 0.096942
0.464963 0.507296 0.090549
0.521245 0.510081 0.084155
0.577526 0.512865 0.077761
0.633807 0.515649 0.071368
0.690088 0.518433 0.064974
0.746370 0.521217 0.058581
0.802651 0.524001 0.052187
0.858932 0.526785 0.045794
0.915213 0.529569 0.039400
0.015512 0.538597 0.152925
0.071794 0.541381 0.146531
0.128075 0.544165 0.140138
0.184356 0.546949 0.133744
0.240637 0.549733 0.127350
0.296919 0.552517 0.120957
0.353200 0.555302 0.114563
0.409481 0.558086 0.108170
0.465762 0.560870 0.101776
0.522043 0.563654 0.095383
0.578325 0.566438 0.088989
0.634606 0.569222 0.082596
0.690887 0.572006 0.076202
0.747168 0.574790 0.069809
0.803450 0.577574 0.063415
0.859731 0.580358 0.057021
0.916012 0.583142 0.050628
0.016311 0.592170 0.164152
0.072592 0.594954 0.157759
0.128874 0.597738 0.151365
0.185155 0.600523 0.144972
0.241436 0.603307 0.138578
0.297717 0.606091 0.132185
0.353999 0.608875 0.125791
0.410280 0.611659 0.119398
0.466561 0.614443 0.113004
0.522842 0.617227 0.106610
0.579124 0.620011 0.100217
0.635405 0.622795 0.093823
0.691686 0.625579 0.087430
0.747967 0.628363 0.081036
0.804249 0.631147 0.074643
0.860530 0.633931 0.068249
0.916811 0.636715 0.061856
0.017110 0.645744 0.175380
0.073391 0.648528 0.168987
0.129673 0.651312 0.162593
0.185954 0.654096 0.156199
0.242235 0.656880 0.149806
0.298516 0.659664 0.143412
0.354798 0.662448 0.137019
0.411079 0.665232 0.130625
0.467360 0.668016 0.124232
0.523641 0.670800 0.117838
0.579923 0.673584 0.111445
0.636204 0.676368 0.105051
0.692485 0.679152 0.098658
0.748766 0.681936 0.092264
0.805047 0.684720 0.085870
0.861329 0.687504 0.079477
0.917610 0.690288 0.073083
0.017909 0.699317 0.186608
0.074190 0.702101 0.180214
0.130472 0.704885 0.173821
0.186753 0.707669 0.167427
0.243034 0.710453 0.161034
0.299315 0.713237 0.154640
0.355596 0.716021 0.148247
0.411878 0.718805 0.141853
0.468159 0.721589 0.135459
0.524440 0.724373 0.129066
0.580721 0.727157 0.122672
0.637003 0.729941 0.116279
0.693284 0.732725 0.109885
0.749565 0.735509 0.103492
0.805846 0.738294 0.097098
0.862128 0.741078 0.090705
0.918409 0.743862 0.084311
0.018708 0.752890 0.197836
0.074989 0.755674 0.191442
0.131270 0.758458 0.185048
0.187552 0.761242 0.178655
0.243833 0.764026 0.172261
0.300114 0.766810 0.165868
0.356395 0.769594 0.159474
0.412677 0.772378 0.153081
0.468958 0.775162 0.146687
0.525239 0.777946 0.140294
0.581520 0.780730 0.133900
0.637802 0.783515 0.127507
0.694083 0.786299 0.121113
0.750364 0.789083 0.114719
0.806645 0.791867 0.108326
0.862927 0.794651 0.101932
0.919208 0.797435 0.095539
0.019507 0.806463 0.209063
0.075788 0.809247 0.202670
0.132069 0.812031 0.196276
0.188351 0.814815 0.189883
0.244632 0.817599 0.183489
0.300913 0.820383 0.177096
0.357194 0.823167 0.170702
0.413476 0.825952 0.164308
0.469757 0.828736 0.157915
0.526038 0.831520 0.151521
0.582319 0.834304 0.145128
0.638600 0.837088 0.138734
0.694882 0.839872 0.132341
0.751163 0.842656 0.125947
0.807444 0.845440 0.119554
0.863725 0.848224 0.113160
0.920007 0.851008 0.106767
0.020306 0.860036 0.220291
0.076587 0.862820 0.213897
0.132868 0.865604 0.207504
0.189149 0.868388 0.201110
0.245431 0.871173 0.194717
0.301712 0.873957 0.188323
0.357993 0.876741 0.181930
0.414274 0.879525 0.175536
0.470556 0.882309 0.169143
0.526837 0.885093 0.162749
0.583118 0.887877 0.156356
0.639399 0.890661 0.149962
0.695681 0.893445 0.143568
0.751962 0.896229 0.137175
0.808243 0.899013 0.130781
0.864524 0.901797 0.124388
0.920806 0.904581 0.117994
0.015047 0.005731 0.081295
0.071328 0.008515 0.074901
0.127609 0.011299 0.068508
0.183890 0.014083 0.062114
0.240172 0.016867 0.055721
0.296453 0.019651 0.049327
0.352734 0.022435 0.042933
0.409015 0.025219 0.036540
0.465296 0.028003 0.030146
0.521578 0.030787 0.023753
0.577859 0.033571 0.017359
0.634140 0.036355 0.010966
0.690421 0.039140 0.004572
0.746703 0.041924 0.000000
0.802984 0.044708 0.000000
0.859265 0.047492 0.000000
0.915546 0.050276 0.000000
0.015845 0.059304 0.092523
0.072127 0.062088 0.086129
0.128408 0.064872 0.079735
0.184689 0.067656 0.073342
0.240970 0.070440 0.066948
0.297252 0.073224 0.060555
0.353533 0.076008 0.054161
0.409814 0.078792 0.047768
0.466095 0.081576 0.041374
0.522377 0.084361 0.034981
0.578658 0.087145 0.028587
0.634939 0.089929 0.022193
0.691220 0.092713 0.015800
0.747502 0.095497 0.009406
0.803783 0.098281 0.003013
0.860064 0.101065 0.000000
0.916345 0.103849 0.000000
0.016644 0.112877 0.103750
0.072926 0.115661 0.097357
0.129207 0.118445 0.090963
0.185488 0.121229 0.084570
0.241769 0.124013 0.078176
0.298051 0.126797 0.071782
0.354332 0.129582 0.065389
0.410613 0.132366 0.058995
0.466894 0.135150 0.052602
0.523176 0.137934 0.046208
0.579457 0.140718 0.039815
0.635738 0.143502 0.033421
0.692019 0.146286 0.027028
0.748300 0.149070 0.020634
0.804582 0.151854 0.014241
0.860863 0.154638 0.007847
0.917144 0.157422 0.001453
0.017443 0.166450 0.114978
0.073725 0.169234 0.108584
0.130006 0.172018 0.102191
0.186287 0.174803 0.095797
0.242568 0.177587 0.089404
0.298849 0.180371 0.083010
0.355131 0.183155 0.076617
0.411412 0.185939 0.070223
0.467693 0.188723 0.063830
0.523974 0.191507 0.057436
0.580256 0.194291 0.051042
0.636537 0.197075 0.044649
0.692818 0.199859 0.038255
0.749099 0.202643 0.031862
0.805381 0.205427 0.025468
0.861662 0.208211 0.019075
0.917943 0.210995 0.012681
0.018242 0.220024 0.126206
0.074523 0.222808 0.119812
0.130805 0.225592 0.113419
0.187086 0.228376 0.107025
0.243367 0.231160 0.100631
0.299648 0.233944 0.094238
0.355930 0.236728 0.087844
0.412211 0.239512 0.081451
0.468492 0.242296 0.075057
0.524773 0.245080 0.068664
0.581055 0.247864 0.062270
0.637336 0.250648 0.055877
0.693617 0.253432 0.049483
0.749898 0.256216 0.043090
0.806180 0.259000 0.036696
0.862461 0.261784 0.030302
0.918742 0.264568 0.023909
0.019041 0.273597 0.137433
0.075322 0.276381 0.131040
0.131604 0.279165 0.124646
0.187885 0.281949 0.118253
0.244166 0.284733 0.111859
0.300447 0.287517 0.105466
0.356729 0.290301 0.099072
0.413010 0.293085 0.092679
0.469291 0.295869 0.086285
0.525572 0.298653 0.079891
0.581853 0.301437 0.073498
0.638135 0.304221 0.067104
0.694416 0.307005 0.060711
0.750697 0.309789 0.054317
0.806978 0.312574 0.047924
0.863260 0.315358 0.041530
0.919541 0.318142 0.035137
0.019840 0.327170 0.148661
0.076121 0.329954 0.142268
0.132402 0.332738 0.135874
0.188684 0.335522 0.129480
0.244965 0.338306 0.123087
0.301246 0.341090 0.116693
0.357527 0.343874 0.110300
0.413809 0.346658 0.103906
0.470090 0.349442 0.097513
0.526371 0.352226 0.091119
0.582652 0.355010 0.084726
0.638934 0.357795 0.078332
0.695215 0.360579 0.071939
0.751496 0.363363 0.065545
0.807777 0.366147 0.059151
0.864059 0.368931 0.052758
0.920340 0.371715 0.046364
0.020639 0.380743 0.159889
0.076920 0.383527 0.153495
0.133201 0.386311 0.147102
0.189483 0.389095 0.140708
0.245764 0.391879 0.134315
0.302045 0.394663 0.127921
0.358326 0.397447 0.121528
0.414608 0.400231 0.115134
0.470889 0.403016 0.108740
0.527170 0.405800 0.102347
0.583451 0.408584 0.095953
0.639733 0.411368 0.089560
0.696014 0.414152 0.083166
0.752295 0.416936 0.076773
0.808576 0.419720 0.070379
0.864857 0.422504 0.063986
0.921139 0.425288 0.057592
0.021438 0.434316 0.171117
0.077719 0.437100 0.164723
0.134000 0.439884 0.158329
0.190282 0.442668 0.151936
0.246563 0.445452 0.145542
0.302844 0.448237 0.139149
0.359125 0.451021 0.132755
0.415406 0.453805 0.126362
0.471688 0.456589 0.119968
0.527969 0.459373 0.113575
0.584250 0.462157 0.107181
0.640531 0.464941 0.100788
0.696813 0.467725 0.094394
0.753094 0.470509 0.088000
0.809375 0.473293 0.081607
0.865656 0.476077 0.075213
0.921938 0.478861 0.068820
0.022237 0.487889 0.182344
0.078518 0.490673 0.175951
0.134799 0.493458 0.169557
0.191080 0.496242 0.163164
0.247362 0.499026 0.156770
0.303643 0.501810 0.150377
0.359924 0.504594 0.143983
0.416205 0.507378 0.137589
0.472487 0.510162 0.131196
0.528768 0.512946 0.124802
0.585049 0.515730 0.118409
0.641330 0.518514 0.112015
0.697612 0.521298 0.105622
0.753893 0.524082 0.099228
0.810174 0.526866 0.092835
0.866455 0.529650 0.086441
0.922737 0.532434 0.080048
0.023036 0.541463 0.193572
0.079317 0.544247 0.187178
0.135598 0.547031 0.180785
0.191879 0.549815 0.174391
0.248161 0.552599 0.167998
0.304442 0.555383 0.161604
0.360723 0.558167 0.155211
0.417004 0.560951 0.148817
0.473286 0.563735 0.142424
0.529567 0.566519 0.136030
0.585848 0.569303 0.129637
0.642129 0.572087 0.123243
0.698410 0.574871 0.116849
0.754692 0.577655 0.110456
0.810973 0.580439 0.104062
0.867254 0.583223 0.097669
0.923535 0.586008 0.091275
0.023835 0.595036 0.204800
0.080116 0.597820 0.198406
0.136397 0.600604 0.192013
0.192678 0.603388 0.185619
0.248959 0.606172 0.179226
0.305241 0.608956 0.172832
0.361522 0.611740 0.166438
0.417803 0.614524 0.160045
0.474084 0.617308 0.153651
0.530366 0.620092 0.147258
0.586647 0.622876 0.140864
0.642928 0.625660 0.134471
0.699209 0.628444 0.128077
0.755491 0.631229 0.121684
0.811772 0.634013 0.115290
0.868053 0.636797 0.108897
0.924334 0.639581 0.102503
0.024633 0.648609 0.216027
0.080915 0.651393 0.209634
0.137196 0.654177 0.203240
0.193477 0.656961 0.196847
0.249758 0.659745 0.190453
0.306040 0.662529 0.184060
0.362321 0.665313 0.177666
0.418602 0.668097 0.171273
0.474883 0.670881 0.164879
0.531165 0.673665 0.158486
0.587446 0.676450 0.152092
0.643727 0.679234 0.145698
0.700008 0.682018 0.139305
0.756290 0.684802 0.132911
0.812571 0.687586 0.126518
0.868852 0.690370 0.120124
0.925133 0.693154 0.113731
0.025432 0.702182 0.227255
0.081714 0.704966 0.220862
0.137995 0.707750 0.214468
0.194276 0.710534 0.208075
0.250557 0.713318 0.201681
0.306839 0.716102 0.195287
0.363120 0.718886 0.188894
0.419401 0.721671 0.182500
0.475682 0.724455 0.176107
0.531963 0.727239 0.169713
0.588245 0.730023 0.163320
0.644526 0.732807 0.156926
0.700807 0.735591 0.150533
0.757088 0.738375 0.144139
0.813370 0.741159 0.137746
0.869651 0.743943 0.131352
0.925932 0.746727 0.124958
0.026231 0.755755 0.238483
0.082512 0.758539 0.232089
0.138794 0.761323 0.225696
0.195075 0.764108 0.219302
0.251356 0.766892 0.212909
0.307637 0.769676 0.206515
0.363919 0.772460 0.200122
0.420200 0.775244 0.193728
0.476481 0.778028 0.187335
0.532762 0.780812 0.180941
0.589044 0.783596 0.174547
0.645325 0.786380 0.168154
0.701606 0.789164 0.161760
0.757887 0.791948 0.155367
0.814169 0.794732 0.148973
0.870450 0.797516 0.142580
0.926731 0.800300 0.136186
0.027030 0.809329 0.249711
0.083311 0.812113 0.243317
0.139593 0.814897 0.236924
0.195874 0.817681 0.230530
0.252155 0.820465 0.224136
0.308436 0.823249 0.217743
0.364718 0.826033 0.211349
0.420999 0.828817 0.204956
0.477280 0.831601 0.198562
0.533561 0.834385 0.192169
0.589843 0.837169 0.185775
0.646124 0.839953 0.179382
0.702405 0.842737 0.172988
0.758686 0.845521 0.166595
0.814967 0.848305 0.160201
0.871249 0.851089 0.153807
0.927530 0.853873 0.147414
0.027829 0.862902 0.260938
0.084110 0.865686 0.254545
0.140392 0.868470 0.248151
0.196673 0.871254 0.241758
0.252954 0.874038 0.235364
0.309235 0.876822 0.228971
0.365516 0.879606 0.222577
0.421798 0.882390 0.216184
0.478079 0.885174 0.209790
0.534360 0.887958 0.203396
0.590641 0.890742 0.197003
0.646923 0.893526 0.190609
0.703204 0.896310 0.184216
0.759485 0.899094 0.177822
0.815766 0.901878 0.171429
0.872048 0.904663 0.165035
0.928329 0.907447 0.158642
0.022570 0.008596 0.121942
0.078851 0.011380 0.115549
0.135132 0.014164 0.109155
0.191414 0.016948 0.102762
0.247695 0.019732 0.096368
0.303976 0.022517 0.089974
0.360257 0.025301 0.083581
0.416539 0.028085 0.077187
0.472820 0.030869 0.070794
0.529101 0.033653 0.064400
0.585382 0.036437 0.058007
0.641663 0.039221 0.051613
0.697945 0.042005 0.045220
0.754226 0.044789 0.038826
0.810507 0.047573 0.032433
0.866788 0.050357 0.026039
0.923070 0.053141 0.019645
