scan_correction.cube
# ColorChecker correction LUT (display linear RGB 0-1)
# Generated from colorchecker_scan.json
LUT_3D_SIZE 5
0.000000 0.000000 0.000000
0.253654 0.000000 0.039718
0.507309 0.000000 0.079437
0.760963 0.000000 0.119155
1.000000 0.000000 0.158874
0.026156 0.281297 0.000000
0.279810 0.268507 0.000000
0.533464 0.255716 0.009503
0.787119 0.242925 0.049222
1.000000 0.230134 0.088940
0.052311 0.562595 0.000000
0.305966 0.549804 0.000000
0.559620 0.537013 0.000000
0.813275 0.524222 0.000000
1.000000 0.511432 0.019006
0.078467 0.843892 0.000000
0.332121 0.831101 0.000000
0.585776 0.818311 0.000000
0.839430 0.805520 0.000000
1.000000 0.792729 0.000000
0.104622 1.000000 0.000000
0.358277 1.000000 0.000000
0.611931 1.000000 0.000000
0.865586 1.000000 0.000000
1.000000 1.000000 0.000000
0.000000 0.000000 0.361617
0.185612 0.000000 0.401335
0.439266 0.000000 0.441054
0.692921 0.000000 0.480772
0.946575 0.000000 0.520491
0.000000 0.260795 0.291683
0.211768 0.248004 0.331402
0.465422 0.235213 0.371120
0.719077 0.222422 0.410839
0.972731 0.209632 0.450557
0.000000 0.542092 0.221749
0.237923 0.529301 0.261468
0.491578 0.516511 0.301186
0.745232 0.503720 0.340905
0.998887 0.490929 0.380623
0.010424 0.823390 0.151816
0.264079 0.810599 0.191534
0.517733 0.797808 0.231253
0.771388 0.785017 0.270971
1.000000 0.772226 0.310689
0.036580 1.000000 0.081882
0.290234 1.000000 0.121600
0.543889 1.000000 0.161319
0.797543 1.000000 0.201037
1.000000 1.000000 0.240756
0.000000 0.000000 0.723234
0.117570 0.000000 0.762952
0.371224 0.000000 0.802671
0.624879 0.000000 0.842389
0.878533 0.000000 0.882108
0.000000 0.240292 0.653300
0.143725 0.227501 0.693019
0.397380 0.214711 0.732737
0.651034 0.201920 0.772455
0.904689 0.189129 0.812174
0.000000 0.521590 0.583366
0.169881 0.508799 0.623085
0.423535 0.496008 0.662803
0.677190 0.483217 0.702522
0.930844 0.470426 0.742240
0.000000 0.802887 0.513433
0.196036 0.790096 0.553151
0.449691 0.777305 0.592869
0.703345 0.764515 0.632588
0.957000 0.751724 0.672306
0.000000 1.000000 0.443499
0.222192 1.000000 0.483217
0.475846 1.000000 0.522936
0.729501 1.000000 0.562654
0.983155 1.000000 0.602373
0.000000 0.000000 1.000000
0.049527 0.000000 1.000000
0.303182 0.000000 1.000000
0.556836 0.000000 1.000000
0.810491 0.000000 1.000000
0.000000 0.219790 1.000000
0.075683 0.206999 1.000000
0.329337 0.194208 1.000000
0.582992 0.181417 1.000000
0.836646 0.168626 1.000000
0.000000 0.501087 0.944983
0.101838 0.488296 0.984702
0.355493 0.475505 1.000000
0.609147 0.462714 1.000000
0.862802 0.449924 1.000000
0.000000 0.782384 0.875049
0.127994 0.769594 0.914768
0.381648 0.756803 0.954486
0.635303 0.744012 0.994205
0.888957 0.731221 1.000000
0.000000 1.000000 0.805116
0.154150 1.000000 0.844834
0.407804 1.000000 0.884553
0.661459 1.000000 0.924271
0.915113 1.000000 0.963990
0.000000 0.000000 1.000000
0.000000 0.000000 1.000000
0.235139 0.000000 1.000000
0.488794 0.000000 1.000000
0.742448 0.000000 1.000000
0.000000 0.199287 1.000000
0.007640 0.186496 1.000000
0.261295 0.173705 1.000000
0.514949 0.160914 1.000000
0.768604 0.148124 1.000000
0.000000 0.480584 1.000000
0.033796 0.467793 1.000000
0.287450 0.455003 1.000000
0.541105 0.442212 1.000000
0.794759 0.429421 1.000000
0.000000 0.761882 1.000000
0.059952 0.749091 1.000000
0.313606 0.736300 1.000000
0.567260 0.723509 1.000000
0.820915 0.710718 1.000000
0.000000 1.000000 1.000000
0.086107 1.000000 1.000000
0.339762 1.000000 1.000000
0.593416 1.000000 1.000000
0.847071 0.992016 1.000000
