scan_correction.cube
# ColorChecker correction LUT (display linear RGB 0-1)
# Generated from colorchecker_scan.json
LUT_3D_SIZE 17
0.000000 0.000000 0.000000
0.063414 0.000000 0.009930
0.126827 0.000000 0.019859
0.190241 0.000000 0.029789
0.253654 0.000000 0.039718
0.317068 0.000000 0.049648
0.380482 0.000000 0.059578
0.443895 0.000000 0.069507
0.507309 0.000000 0.079437
0.570722 0.000000 0.089367
0.634136 0.000000 0.099296
0.697550 0.000000 0.109226
0.760963 0.000000 0.119155
0.824377 0.000000 0.129085
0.887791 0.000000 0.139015
0.951204 0.000000 0.148944
1.000000 0.000000 0.158874
0.006539 0.070324 0.000000
0.069953 0.067127 0.000000
0.133366 0.063929 0.002376
0.196780 0.060731 0.012305
0.260193 0.057534 0.022235
0.323607 0.054336 0.032165
0.387021 0.051138 0.042094
0.450434 0.047940 0.052024
0.513848 0.044743 0.061953
0.577261 0.041545 0.071883
0.640675 0.038347 0.081813
0.704089 0.035150 0.091742
0.767502 0.031952 0.101672
0.830916 0.028754 0.111602
0.894329 0.025556 0.121531
0.957743 0.022359 0.131461
1.000000 0.019161 0.141390
0.013078 0.140649 0.000000
0.076491 0.137451 0.000000
0.139905 0.134253 0.000000
0.203319 0.131056 0.000000
0.266732 0.127858 0.004752
0.330146 0.124660 0.014681
0.393559 0.121462 0.024611
0.456973 0.118265 0.034540
0.520387 0.115067 0.044470
0.583800 0.111869 0.054400
0.647214 0.108672 0.064329
0.710628 0.105474 0.074259
0.774041 0.102276 0.084188
0.837455 0.099079 0.094118
0.900868 0.095881 0.104048
0.964282 0.092683 0.113977
1.000000 0.089485 0.123907
0.019617 0.210973 0.000000
0.083030 0.207775 0.000000
0.146444 0.204578 0.000000
0.209858 0.201380 0.000000
0.273271 0.198182 0.000000
0.336685 0.194985 0.000000
0.400098 0.191787 0.007127
0.463512 0.188589 0.017057
0.526926 0.185391 0.026987
0.590339 0.182194 0.036916
0.653753 0.178996 0.046846
0.717166 0.175798 0.056775
0.780580 0.172601 0.066705
0.843994 0.169403 0.076635
0.907407 0.166205 0.086564
0.970821 0.163007 0.096494
1.000000 0.159810 0.106424
0.026156 0.281297 0.000000
0.089569 0.278100 0.000000
0.152983 0.274902 0.000000
0.216396 0.271704 0.000000
0.279810 0.268507 0.000000
0.343224 0.265309 0.000000
0.406637 0.262111 0.000000
0.470051 0.258913 0.000000
0.533464 0.255716 0.009503
0.596878 0.252518 0.019433
0.660292 0.249320 0.029362
0.723705 0.246123 0.039292
0.787119 0.242925 0.049222
0.850533 0.239727 0.059151
0.913946 0.236530 0.069081
0.977360 0.233332 0.079010
1.000000 0.230134 0.088940
0.032694 0.351622 0.000000
0.096108 0.348424 0.000000
0.159522 0.345226 0.000000
0.222935 0.342029 0.000000
0.286349 0.338831 0.000000
0.349763 0.335633 0.000000
0.413176 0.332436 0.000000
0.476590 0.329238 0.000000
0.540003 0.326040 0.000000
0.603417 0.322842 0.001949
0.666831 0.319645 0.011879
0.730244 0.316447 0.021809
0.793658 0.313249 0.031738
0.857071 0.310052 0.041668
0.920485 0.306854 0.051597
0.983899 0.303656 0.061527
1.000000 0.300458 0.071457
0.039233 0.421946 0.000000
0.102647 0.418748 0.000000
0.166061 0.415551 0.000000
0.229474 0.412353 0.000000
0.292888 0.409155 0.000000
0.356301 0.405958 0.000000
0.419715 0.402760 0.000000
0.483129 0.399562 0.000000
0.546542 0.396364 0.000000
0.609956 0.393167 0.000000
0.673369 0.389969 0.000000
0.736783 0.386771 0.004325
0.800197 0.383574 0.014255
0.863610 0.380376 0.024184
0.927024 0.377178 0.034114
0.990438 0.373981 0.044044
1.000000 0.370783 0.053973
0.045772 0.492270 0.000000
0.109186 0.489073 0.000000
0.172600 0.485875 0.000000
0.236013 0.482677 0.000000
0.299427 0.479480 0.000000
0.362840 0.476282 0.000000
0.426254 0.473084 0.000000
0.489668 0.469887 0.000000
0.553081 0.466689 0.000000
0.616495 0.463491 0.000000
0.679908 0.460293 0.000000
0.743322 0.457096 0.000000
0.806736 0.453898 0.000000
0.870149 0.450700 0.006701
0.933563 0.447503 0.016631
0.996976 0.444305 0.026560
1.000000 0.441107 0.036490
0.052311 0.562595 0.000000
0.115725 0.559397 0.000000
0.179138 0.556199 0.000000
0.242552 0.553002 0.000000
0.305966 0.549804 0.000000
0.369379 0.546606 0.000000
0.432793 0.543409 0.000000
0.496206 0.540211 0.000000
0.559620 0.537013 0.000000
0.623034 0.533816 0.000000
0.686447 0.530618 0.000000
0.749861 0.527420 0.000000
0.813275 0.524222 0.000000
0.876688 0.521025 0.000000
0.940102 0.517827 0.000000
1.000000 0.514629 0.009077
1.000000 0.511432 0.019006
0.058850 0.632919 0.000000
0.122264 0.629722 0.000000
0.185677 0.626524 0.000000
0.249091 0.623326 0.000000
0.312505 0.620128 0.000000
0.375918 0.616931 0.000000
0.439332 0.613733 0.000000
0.502745 0.610535 0.000000
0.566159 0.607338 0.000000
0.629573 0.604140 0.000000
0.692986 0.600942 0.000000
0.756400 0.597744 0.000000
0.819813 0.594547 0.000000
0.883227 0.591349 0.000000
0.946641 0.588151 0.000000
1.000000 0.584954 0.000000
1.000000 0.581756 0.001523
0.065389 0.703244 0.000000
0.128803 0.700046 0.000000
0.192216 0.696848 0.000000
0.255630 0.693650 0.000000
0.319043 0.690453 0.000000
0.382457 0.687255 0.000000
0.445871 0.684057 0.000000
0.509284 0.680860 0.000000
0.572698 0.677662 0.000000
0.636111 0.674464 0.000000
0.699525 0.671267 0.000000
0.762939 0.668069 0.000000
0.826352 0.664871 0.000000
0.889766 0.661673 0.000000
0.953180 0.658476 0.000000
1.000000 0.655278 0.000000
1.000000 0.652080 0.000000
0.071928 0.773568 0.000000
0.135342 0.770370 0.000000
0.198755 0.767173 0.000000
0.262169 0.763975 0.000000
0.325582 0.760777 0.000000
0.388996 0.757579 0.000000
0.452410 0.754382 0.000000
0.515823 0.751184 0.000000
0.579237 0.747986 0.000000
0.642650 0.744789 0.000000
0.706064 0.741591 0.000000
0.769478 0.738393 0.000000
0.832891 0.735195 0.000000
0.896305 0.731998 0.000000
0.959718 0.728800 0.000000
1.000000 0.725602 0.000000
1.000000 0.722405 0.000000
0.078467 0.843892 0.000000
0.141880 0.840695 0.000000
0.205294 0.837497 0.000000
0.268708 0.834299 0.000000
0.332121 0.831101 0.000000
0.395535 0.827904 0.000000
0.458948 0.824706 0.000000
0.522362 0.821508 0.000000
0.585776 0.818311 0.000000
0.649189 0.815113 0.000000
0.712603 0.811915 0.000000
0.776017 0.808718 0.000000
0.839430 0.805520 0.000000
0.902844 0.802322 0.000000
0.966257 0.799124 0.000000
1.000000 0.795927 0.000000
1.000000 0.792729 0.000000
0.085006 0.914217 0.000000
0.148419 0.911019 0.000000
0.211833 0.907821 0.000000
0.275247 0.904624 0.000000
0.338660 0.901426 0.000000
0.402074 0.898228 0.000000
0.465487 0.895030 0.000000
0.528901 0.891833 0.000000
0.592315 0.888635 0.000000
0.655728 0.885437 0.000000
0.719142 0.882240 0.000000
0.782555 0.879042 0.000000
0.845969 0.875844 0.000000
0.909383 0.872646 0.000000
0.972796 0.869449 0.000000
1.000000 0.866251 0.000000
1.000000 0.863053 0.000000
0.091545 0.984541 0.000000
0.154958 0.981343 0.000000
0.218372 0.978146 0.000000
0.281785 0.974948 0.000000
0.345199 0.971750 0.000000
0.408613 0.968552 0.000000
0.472026 0.965355 0.000000
0.535440 0.962157 0.000000
0.598853 0.958959 0.000000
0.662267 0.955762 0.000000
0.725681 0.952564 0.000000
0.789094 0.949366 0.000000
0.852508 0.946169 0.000000
0.915922 0.942971 0.000000
0.979335 0.939773 0.000000
1.000000 0.936575 0.000000
1.000000 0.933378 0.000000
0.098083 1.000000 0.000000
0.161497 1.000000 0.000000
0.224911 1.000000 0.000000
0.288324 1.000000 0.000000
0.351738 1.000000 0.000000
0.415152 1.000000 0.000000
0.478565 1.000000 0.000000
0.541979 1.000000 0.000000
0.605392 1.000000 0.000000
0.668806 1.000000 0.000000
0.732220 1.000000 0.000000
0.795633 1.000000 0.000000
0.859047 1.000000 0.000000
0.922460 1.000000 0.000000
0.985874 1.000000 0.000000
1.000000 1.000000 0.000000
1.000000 1.000000 0.000000
0.104622 1.000000 0.000000
0.168036 1.000000 0.000000
0.231450 1.000000 0.000000
0.294863 1.000000 0.000000
0.358277 1.000000 0.000000
0.421690 1.000000 0.000000
0.485104 1.000000 0.000000
0.548518 1.000000 0.000000
0.611931 1.000000 0.000000
0.675345 1.000000 0.000000
0.738758 1.000000 0.000000
0.802172 1.000000 0.000000
0.865586 1.000000 0.000000
0.928999 1.000000 0.000000
0.992413 1.000000 0.000000
1.000000 1.000000 0.000000
1.000000 1.000000 0.000000
0.000000 0.000000 0.090404
0.046403 0.000000 0.100334
0.109817 0.000000 0.110263
0.173230 0.000000 0.120193
0.236644 0.000000 0.130123
0.300057 0.000000 0.140052
0.363471 0.000000 0.149982
0.426885 0.000000 0.159912
0.490298 0.000000 0.169841
0.553712 0.000000 0.179771
0.617125 0.000000 0.189700
0.680539 0.000000 0.199630
0.743953 0.000000 0.209560
0.807366 0.000000 0.219489
0.870780 0.000000 0.229419
0.934194 0.000000 0.239348
0.997607 0.000000 0.249278
0.000000 0.065199 0.072921
0.052942 0.062001 0.082850
0.116356 0.058803 0.092780
0.179769 0.055606 0.102710
0.243183 0.052408 0.112639
0.306596 0.049210 0.122569
0.370010 0.046012 0.132498
0.433424 0.042815 0.142428
0.496837 0.039617 0.152358
0.560251 0.036419 0.162287
0.623664 0.033222 0.172217
0.687078 0.030024 0.182147
0.750492 0.026826 0.192076
0.813905 0.023629 0.202006
0.877319 0.020431 0.211935
0.940732 0.017233 0.221865
1.000000 0.014035 0.231795
0.000000 0.135523 0.055437
0.059481 0.132325 0.065367
0.122894 0.129128 0.075297
0.186308 0.125930 0.085226
0.249722 0.122732 0.095156
0.313135 0.119535 0.105085
0.376549 0.116337 0.115015
0.439962 0.113139 0.124945
0.503376 0.109941 0.134874
0.566790 0.106744 0.144804
0.630203 0.103546 0.154733
0.693617 0.100348 0.164663
0.757031 0.097151 0.174593
0.820444 0.093953 0.184522
0.883858 0.090755 0.194452
0.947271 0.087557 0.204382
1.000000 0.084360 0.214311
0.002606 0.205847 0.037954
0.066020 0.202650 0.047884
0.129433 0.199452 0.057813
0.192847 0.196254 0.067743
0.256261 0.193057 0.077672
0.319674 0.189859 0.087602
0.383088 0.186661 0.097532
0.446501 0.183463 0.107461
0.509915 0.180266 0.117391
0.573329 0.177068 0.127320
0.636742 0.173870 0.137250
0.700156 0.170673 0.147180
0.763569 0.167475 0.157109
0.826983 0.164277 0.167039
0.890397 0.161080 0.176969
0.953810 0.157882 0.186898
1.000000 0.154684 0.196828
0.009145 0.276172 0.020470
0.072559 0.272974 0.030400
0.135972 0.269776 0.040330
0.199386 0.266579 0.050259
0.262799 0.263381 0.060189
0.326213 0.260183 0.070119
0.389627 0.256986 0.080048
0.453040 0.253788 0.089978
0.516454 0.250590 0.099907
0.579867 0.247392 0.109837
0.643281 0.244195 0.119767
0.706695 0.240997 0.129696
0.770108 0.237799 0.139626
0.833522 0.234602 0.149555
0.896936 0.231404 0.159485
0.960349 0.228206 0.169415
1.000000 0.225008 0.179344
0.015684 0.346496 0.002987
0.079098 0.343298 0.012917
0.142511 0.340101 0.022846
0.205925 0.336903 0.032776
0.269338 0.333705 0.042705
0.332752 0.330508 0.052635
0.396166 0.327310 0.062565
0.459579 0.324112 0.072494
0.522993 0.320914 0.082424
0.586406 0.317717 0.092354
0.649820 0.314519 0.102283
0.713234 0.311321 0.112213
0.776647 0.308124 0.122142
0.840061 0.304926 0.132072
0.903474 0.301728 0.142002
0.966888 0.298531 0.151931
1.000000 0.295333 0.161861
0.022223 0.416820 0.000000
0.085636 0.413623 0.000000
0.149050 0.410425 0.005363
0.212464 0.407227 0.015292
0.275877 0.404030 0.025222
0.339291 0.400832 0.035152
0.402704 0.397634 0.045081
0.466118 0.394437 0.055011
0.529532 0.391239 0.064941
0.592945 0.388041 0.074870
0.656359 0.384843 0.084800
0.719773 0.381646 0.094729
0.783186 0.378448 0.104659
0.846600 0.375250 0.114589
0.910013 0.372053 0.124518
0.973427 0.368855 0.134448
1.000000 0.365657 0.144377
0.028762 0.487145 0.000000
0.092175 0.483947 0.000000
0.155589 0.480749 0.000000
0.219003 0.477552 0.000000
0.282416 0.474354 0.007739
0.345830 0.471156 0.017668
0.409243 0.467959 0.027598
0.472657 0.464761 0.037527
0.536071 0.461563 0.047457
0.599484 0.458365 0.057387
0.662898 0.455168 0.067316
0.726311 0.451970 0.077246
0.789725 0.448772 0.087176
0.853139 0.445575 0.097105
0.916552 0.442377 0.107035
0.979966 0.439179 0.116964
1.000000 0.435982 0.126894
0.035301 0.557469 0.000000
0.098714 0.554271 0.000000
0.162128 0.551074 0.000000
0.225541 0.547876 0.000000
0.288955 0.544678 0.000000
0.352369 0.541481 0.000185
0.415782 0.538283 0.010114
0.479196 0.535085 0.020044
0.542609 0.531888 0.029974
0.606023 0.528690 0.039903
0.669437 0.525492 0.049833
0.732850 0.522294 0.059762
0.796264 0.519097 0.069692
0.859678 0.515899 0.079622
0.923091 0.512701 0.089551
0.986505 0.509504 0.099481
1.000000 0.506306 0.109411
0.041839 0.627794 0.000000
0.105253 0.624596 0.000000
0.168667 0.621398 0.000000
0.232080 0.618200 0.000000
0.295494 0.615003 0.000000
0.358908 0.611805 0.000000
0.422321 0.608607 0.000000
0.485735 0.605410 0.002561
0.549148 0.602212 0.012490
0.612562 0.599014 0.022420
0.675976 0.595816 0.032349
0.739389 0.592619 0.042279
0.802803 0.589421 0.052209
0.866216 0.586223 0.062138
0.929630 0.583026 0.072068
0.993044 0.579828 0.081997
1.000000 0.576630 0.091927
0.048378 0.698118 0.000000
0.111792 0.694920 0.000000
0.175206 0.691722 0.000000
0.238619 0.688525 0.000000
0.302033 0.685327 0.000000
0.365446 0.682129 0.000000
0.428860 0.678932 0.000000
0.492274 0.675734 0.000000
0.555687 0.672536 0.000000
0.619101 0.669339 0.004936
0.682514 0.666141 0.014866
0.745928 0.662943 0.024796
0.809342 0.659745 0.034725
0.872755 0.656548 0.044655
0.936169 0.653350 0.054584
0.999583 0.650152 0.064514
1.000000 0.646955 0.074444
0.054917 0.768442 0.000000
0.118331 0.765245 0.000000
0.181745 0.762047 0.000000
0.245158 0.758849 0.000000
0.308572 0.755651 0.000000
0.371985 0.752454 0.000000
0.435399 0.749256 0.000000
0.498813 0.746058 0.000000
0.562226 0.742861 0.000000
0.625640 0.739663 0.000000
0.689053 0.736465 0.000000
0.752467 0.733268 0.007312
0.815881 0.730070 0.017242
0.879294 0.726872 0.027171
0.942708 0.723674 0.037101
1.000000 0.720477 0.047031
1.000000 0.717279 0.056960
0.061456 0.838767 0.000000
0.124870 0.835569 0.000000
0.188283 0.832371 0.000000
0.251697 0.829174 0.000000
0.315111 0.825976 0.000000
0.378524 0.822778 0.000000
0.441938 0.819580 0.000000
0.505351 0.816383 0.000000
0.568765 0.813185 0.000000
0.632179 0.809987 0.000000
0.695592 0.806790 0.000000
0.759006 0.803592 0.000000
0.822420 0.800394 0.000000
0.885833 0.797196 0.009688
0.949247 0.793999 0.019618
1.000000 0.790801 0.029547
1.000000 0.787603 0.039477
0.067995 0.909091 0.000000
0.131409 0.905893 0.000000
0.194822 0.902696 0.000000
0.258236 0.899498 0.000000
0.321650 0.896300 0.000000
0.385063 0.893102 0.000000
0.448477 0.889905 0.000000
0.511890 0.886707 0.000000
0.575304 0.883509 0.000000
0.638718 0.880312 0.000000
0.702131 0.877114 0.000000
0.765545 0.873916 0.000000
0.828958 0.870719 0.000000
0.892372 0.867521 0.000000
0.955786 0.864323 0.002134
1.000000 0.861125 0.012064
1.000000 0.857928 0.021993
0.074534 0.979415 0.000000
0.137948 0.976218 0.000000
0.201361 0.973020 0.000000
0.264775 0.969822 0.000000
0.328188 0.966625 0.000000
0.391602 0.963427 0.000000
0.455016 0.960229 0.000000
0.518429 0.957031 0.000000
0.581843 0.953834 0.000000
0.645256 0.950636 0.000000
0.708670 0.947438 0.000000
0.772084 0.944241 0.000000
0.835497 0.941043 0.000000
0.898911 0.937845 0.000000
0.962325 0.934647 0.000000
1.000000 0.931450 0.000000
1.000000 0.928252 0.004510
0.081073 1.000000 0.000000
0.144487 1.000000 0.000000
0.207900 1.000000 0.000000
0.271314 1.000000 0.000000
0.334727 1.000000 0.000000
0.398141 1.000000 0.000000
0.461555 1.000000 0.000000
0.524968 1.000000 0.000000
0.588382 1.000000 0.000000
0.651795 1.000000 0.000000
0.715209 1.000000 0.000000
0.778623 1.000000 0.000000
0.842036 1.000000 0.000000
0.905450 1.000000 0.000000
0.968863 1.000000 0.000000
1.000000 1.000000 0.000000
1.000000 0.998576 0.000000
0.087612 1.000000 0.000000
0.151025 1.000000 0.000000
0.214439 1.000000 0.000000
0.277853 1.000000 0.000000
0.341266 1.000000 0.000000
0.404680 1.000000 0.000000
0.468093 1.000000 0.000000
0.531507 1.000000 0.000000
0.594921 1.000000 0.000000
0.658334 1.000000 0.000000
0.721748 1.000000 0.000000
0.785162 1.000000 0.000000
0.848575 1.000000 0.000000
0.911989 1.000000 0.000000
0.975402 1.000000 0.000000
1.000000 1.000000 0.000000
1.000000 1.000000 0.000000
0.000000 0.000000 0.180808
0.029392 0.000000 0.190738
0.092806 0.000000 0.200668
0.156220 0.000000 0.210597
0.219633 0.000000 0.220527
0.283047 0.000000 0.230457
0.346460 0.000000 0.240386
0.409874 0.000000 0.250316
0.473288 0.000000 0.260245
0.536701 0.000000 0.270175
0.600115 0.000000 0.280105
0.663529 0.000000 0.290034
0.726942 0.000000 0.299964
0.790356 0.000000 0.309893
0.853769 0.000000 0.319823
0.917183 0.000000 0.329753
0.980597 0.000000 0.339682
0.000000 0.060073 0.163325
0.035931 0.056875 0.173255
0.099345 0.053678 0.183184
0.162759 0.050480 0.193114
0.226172 0.047282 0.203043
0.289586 0.044085 0.212973
0.352999 0.040887 0.222903
0.416413 0.037689 0.232832
0.479827 0.034491 0.242762
0.543240 0.031294 0.252692
0.606654 0.028096 0.262621
0.670067 0.024898 0.272551
0.733481 0.021701 0.282480
0.796895 0.018503 0.292410
0.860308 0.015305 0.302340
0.923722 0.012107 0.312269
0.987135 0.008910 0.322199
0.000000 0.130397 0.145842
0.042470 0.127200 0.155771
0.105884 0.124002 0.165701
0.169297 0.120804 0.175630
0.232711 0.117607 0.185560
0.296125 0.114409 0.195490
0.359538 0.111211 0.205419
0.422952 0.108013 0.215349
0.486365 0.104816 0.225278
0.549779 0.101618 0.235208
0.613193 0.098420 0.245138
0.676606 0.095223 0.255067
0.740020 0.092025 0.264997
0.803434 0.088827 0.274927
0.866847 0.085630 0.284856
0.930261 0.082432 0.294786
0.993674 0.079234 0.304715
0.000000 0.200722 0.128358
0.049009 0.197524 0.138288
0.112423 0.194326 0.148217
0.175836 0.191129 0.158147
0.239250 0.187931 0.168077
0.302664 0.184733 0.178006
0.366077 0.181536 0.187936
0.429491 0.178338 0.197865
0.492904 0.175140 0.207795
0.556318 0.171942 0.217725
0.619732 0.168745 0.227654
0.683145 0.165547 0.237584
0.746559 0.162349 0.247514
0.809972 0.159152 0.257443
0.873386 0.155954 0.267373
0.936800 0.152756 0.277302
1.000000 0.149558 0.287232
0.000000 0.271046 0.110875
0.055548 0.267848 0.120804
0.118962 0.264651 0.130734
0.182375 0.261453 0.140664
0.245789 0.258255 0.150593
0.309202 0.255058 0.160523
0.372616 0.251860 0.170452
0.436030 0.248662 0.180382
0.499443 0.245464 0.190312
0.562857 0.242267 0.200241
0.626270 0.239069 0.210171
0.689684 0.235871 0.220100
0.753098 0.232674 0.230030
0.816511 0.229476 0.239960
0.879925 0.226278 0.249889
0.943339 0.223081 0.259819
1.000000 0.219883 0.269749
0.000000 0.341370 0.093391
0.062087 0.338173 0.103321
0.125501 0.334975 0.113250
0.188914 0.331777 0.123180
0.252328 0.328580 0.133110
0.315741 0.325382 0.143039
0.379155 0.322184 0.152969
0.442569 0.318987 0.162899
0.505982 0.315789 0.172828
0.569396 0.312591 0.182758
0.632809 0.309393 0.192687
0.696223 0.306196 0.202617
0.759637 0.302998 0.212547
0.823050 0.299800 0.222476
0.886464 0.296603 0.232406
0.949877 0.293405 0.242335
1.000000 0.290207 0.252265
0.005212 0.411695 0.075908
0.068626 0.408497 0.085837
0.132039 0.405299 0.095767
0.195453 0.402102 0.105697
0.258867 0.398904 0.115626
0.322280 0.395706 0.125556
0.385694 0.392509 0.135486
0.449107 0.389311 0.145415
0.512521 0.386113 0.155345
0.575935 0.382915 0.165274
0.639348 0.379718 0.175204
0.702762 0.376520 0.185134
0.766176 0.373322 0.195063
0.829589 0.370125 0.204993
0.893003 0.366927 0.214922
0.956416 0.363729 0.224852
1.000000 0.360532 0.234782
0.011751 0.482019 0.058424
0.075165 0.478821 0.068354
0.138578 0.475624 0.078284
0.201992 0.472426 0.088213
0.265406 0.469228 0.098143
0.328819 0.466031 0.108072
0.392233 0.462833 0.118002
0.455646 0.459635 0.127932
0.519060 0.456438 0.137861
0.582474 0.453240 0.147791
0.645887 0.450042 0.157721
0.709301 0.446844 0.167650
0.772714 0.443647 0.177580
0.836128 0.440449 0.187509
0.899542 0.437251 0.197439
0.962955 0.434054 0.207369
1.000000 0.430856 0.217298
0.018290 0.552344 0.040941
0.081704 0.549146 0.050871
0.145117 0.545948 0.060800
0.208531 0.542750 0.070730
0.271944 0.539553 0.080659
0.335358 0.536355 0.090589
0.398772 0.533157 0.100519
0.462185 0.529960 0.110448
0.525599 0.526762 0.120378
0.589012 0.523564 0.130307
0.652426 0.520366 0.140237
0.715840 0.517169 0.150167
0.779253 0.513971 0.160096
0.842667 0.510773 0.170026
0.906081 0.507576 0.179956
0.969494 0.504378 0.189885
1.000000 0.501180 0.199815
0.024829 0.622668 0.023458
0.088243 0.619470 0.033387
0.151656 0.616272 0.043317
0.215070 0.613075 0.053246
0.278483 0.609877 0.063176
0.341897 0.606679 0.073106
0.405311 0.603482 0.083035
0.468724 0.600284 0.092965
0.532138 0.597086 0.102894
0.595551 0.593889 0.112824
0.658965 0.590691 0.122754
0.722379 0.587493 0.132683
0.785792 0.584295 0.142613
0.849206 0.581098 0.152542
0.912619 0.577900 0.162472
0.976033 0.574702 0.172402
1.000000 0.571505 0.182331
0.031368 0.692992 0.005974
0.094781 0.689795 0.015904
0.158195 0.686597 0.025833
0.221609 0.683399 0.035763
0.285022 0.680201 0.045693
0.348436 0.677004 0.055622
0.411849 0.673806 0.065552
0.475263 0.670608 0.075481
0.538677 0.667411 0.085411
0.602090 0.664213 0.095341
0.665504 0.661015 0.105270
0.728918 0.657817 0.115200
0.792331 0.654620 0.125129
0.855745 0.651422 0.135059
0.919158 0.648224 0.144989
0.982572 0.645027 0.154918
1.000000 0.641829 0.164848
0.037907 0.763317 0.000000
0.101320 0.760119 0.000000
0.164734 0.756921 0.008350
0.228148 0.753723 0.018279
0.291561 0.750526 0.028209
0.354975 0.747328 0.038139
0.418388 0.744130 0.048068
0.481802 0.740933 0.057998
0.545216 0.737735 0.067928
0.608629 0.734537 0.077857
0.672043 0.731340 0.087787
0.735456 0.728142 0.097716
0.798870 0.724944 0.107646
0.862284 0.721746 0.117576
0.925697 0.718549 0.127505
0.989111 0.715351 0.137435
1.000000 0.712153 0.147364
0.044446 0.833641 0.000000
0.107859 0.830443 0.000000
0.171273 0.827246 0.000000
0.234686 0.824048 0.000796
0.298100 0.820850 0.010726
0.361514 0.817652 0.020655
0.424927 0.814455 0.030585
0.488341 0.811257 0.040514
0.551754 0.808059 0.050444
0.615168 0.804862 0.060374
0.678582 0.801664 0.070303
0.741995 0.798466 0.080233
0.805409 0.795268 0.090163
0.868823 0.792071 0.100092
0.932236 0.788873 0.110022
0.995650 0.785675 0.119951
1.000000 0.782478 0.129881
0.050984 0.903965 0.000000
0.114398 0.900768 0.000000
0.177812 0.897570 0.000000
0.241225 0.894372 0.000000
0.304639 0.891174 0.000000
0.368053 0.887977 0.003172
0.431466 0.884779 0.013101
0.494880 0.881581 0.023031
0.558293 0.878384 0.032961
0.621707 0.875186 0.042890
0.685121 0.871988 0.052820
0.748534 0.868791 0.062749
0.811948 0.865593 0.072679
0.875361 0.862395 0.082609
0.938775 0.859197 0.092538
1.000000 0.856000 0.102468
1.000000 0.852802 0.112398
0.057523 0.974290 0.000000
0.120937 0.971092 0.000000
0.184351 0.967894 0.000000
0.247764 0.964697 0.000000
0.311178 0.961499 0.000000
0.374591 0.958301 0.000000
0.438005 0.955103 0.000000
0.501419 0.951906 0.005548
0.564832 0.948708 0.015477
0.628246 0.945510 0.025407
0.691659 0.942313 0.035336
0.755073 0.939115 0.045266
0.818487 0.935917 0.055196
0.881900 0.932720 0.065125
0.945314 0.929522 0.075055
1.000000 0.926324 0.084985
1.000000 0.923126 0.094914
0.064062 1.000000 0.000000
0.127476 1.000000 0.000000
0.190890 1.000000 0.000000
0.254303 1.000000 0.000000
0.317717 1.000000 0.000000
0.381130 1.000000 0.000000
0.444544 1.000000 0.000000
0.507958 1.000000 0.000000
0.571371 1.000000 0.000000
0.634785 1.000000 0.007923
0.698198 1.000000 0.017853
0.761612 1.000000 0.027783
0.825026 1.000000 0.037712
0.888439 1.000000 0.047642
0.951853 0.999846 0.057571
1.000000 0.996648 0.067501
1.000000 0.993451 0.077431
0.070601 1.000000 0.000000
0.134015 1.000000 0.000000
0.197428 1.000000 0.000000
0.260842 1.000000 0.000000
0.324256 1.000000 0.000000
0.387669 1.000000 0.000000
0.451083 1.000000 0.000000
0.514496 1.000000 0.000000
0.577910 1.000000 0.000000
0.641324 1.000000 0.000000
0.704737 1.000000 0.000370
0.768151 1.000000 0.010299
0.831565 1.000000 0.020229
0.894978 1.000000 0.030158
0.958392 1.000000 0.040088
1.000000 1.000000 0.050018
1.000000 1.000000 0.059947
0.000000 0.000000 0.271213
0.012382 0.000000 0.281142
0.075795 0.000000 0.291072
0.139209 0.000000 0.301002
0.202623 0.000000 0.310931
0.266036 0.000000 0.320861
0.329450 0.000000 0.330790
0.392863 0.000000 0.340720
0.456277 0.000000 0.350650
0.519691 0.000000 0.360579
0.583104 0.000000 0.370509
0.646518 0.000000 0.380438
0.709932 0.000000 0.390368
0.773345 0.000000 0.400298
0.836759 0.000000 0.410227
0.900172 0.000000 0.420157
0.963586 0.000000 0.430087
