scan_correction.cube
# ColorChecker correction LUT (display linear RGB 0-1)
# Generated from colorchecker_scan.json
LUT_3D_SIZE 9
0.000000 0.000000 0.000000
0.126827 0.000000 0.019859
0.253654 0.000000 0.039718
0.380482 0.000000 0.059578
0.507309 0.000000 0.079437
0.634136 0.000000 0.099296
0.760963 0.000000 0.119155
0.887791 0.000000 0.139015
1.000000 0.000000 0.158874
0.013078 0.140649 0.000000
0.139905 0.134253 0.000000
0.266732 0.127858 0.004752
0.393559 0.121462 0.024611
0.520387 0.115067 0.044470
0.647214 0.108672 0.064329
0.774041 0.102276 0.084188
0.900868 0.095881 0.104048
1.000000 0.089485 0.123907
0.026156 0.281297 0.000000
0.152983 0.274902 0.000000
0.279810 0.268507 0.000000
0.406637 0.262111 0.000000
0.533464 0.255716 0.009503
0.660292 0.249320 0.029362
0.787119 0.242925 0.049222
0.913946 0.236530 0.069081
1.000000 0.230134 0.088940
0.039233 0.421946 0.000000
0.166061 0.415551 0.000000
0.292888 0.409155 0.000000
0.419715 0.402760 0.000000
0.546542 0.396364 0.000000
0.673369 0.389969 0.000000
0.800197 0.383574 0.014255
0.927024 0.377178 0.034114
1.000000 0.370783 0.053973
0.052311 0.562595 0.000000
0.179138 0.556199 0.000000
0.305966 0.549804 0.000000
0.432793 0.543409 0.000000
0.559620 0.537013 0.000000
0.686447 0.530618 0.000000
0.813275 0.524222 0.000000
0.940102 0.517827 0.000000
1.000000 0.511432 0.019006
0.065389 0.703244 0.000000
0.192216 0.696848 0.000000
0.319043 0.690453 0.000000
0.445871 0.684057 0.000000
0.572698 0.677662 0.000000
0.699525 0.671267 0.000000
0.826352 0.664871 0.000000
0.953180 0.658476 0.000000
1.000000 0.652080 0.000000
0.078467 0.843892 0.000000
0.205294 0.837497 0.000000
0.332121 0.831101 0.000000
0.458948 0.824706 0.000000
0.585776 0.818311 0.000000
0.712603 0.811915 0.000000
0.839430 0.805520 0.000000
0.966257 0.799124 0.000000
1.000000 0.792729 0.000000
0.091545 0.984541 0.000000
0.218372 0.978146 0.000000
0.345199 0.971750 0.000000
0.472026 0.965355 0.000000
0.598853 0.958959 0.000000
0.725681 0.952564 0.000000
0.852508 0.946169 0.000000
0.979335 0.939773 0.000000
1.000000 0.933378 0.000000
0.104622 1.000000 0.000000
0.231450 1.000000 0.000000
0.358277 1.000000 0.000000
0.485104 1.000000 0.000000
0.611931 1.000000 0.000000
0.738758 1.000000 0.000000
0.865586 1.000000 0.000000
0.992413 1.000000 0.000000
1.000000 1.000000 0.000000
0.000000 0.000000 0.180808
0.092806 0.000000 0.200668
0.219633 0.000000 0.220527
0.346460 0.000000 0.240386
0.473288 0.000000 0.260245
0.600115 0.000000 0.280105
0.726942 0.000000 0.299964
0.853769 0.000000 0.319823
0.980597 0.000000 0.339682
0.000000 0.130397 0.145842
0.105884 0.124002 0.165701
0.232711 0.117607 0.185560
0.359538 0.111211 0.205419
0.486365 0.104816 0.225278
0.613193 0.098420 0.245138
0.740020 0.092025 0.264997
0.866847 0.085630 0.284856
0.993674 0.079234 0.304715
0.000000 0.271046 0.110875
0.118962 0.264651 0.130734
0.245789 0.258255 0.150593
0.372616 0.251860 0.170452
0.499443 0.245464 0.190312
0.626270 0.239069 0.210171
0.753098 0.232674 0.230030
0.879925 0.226278 0.249889
1.000000 0.219883 0.269749
0.005212 0.411695 0.075908
0.132039 0.405299 0.095767
0.258867 0.398904 0.115626
0.385694 0.392509 0.135486
0.512521 0.386113 0.155345
0.639348 0.379718 0.175204
0.766176 0.373322 0.195063
0.893003 0.366927 0.214922
1.000000 0.360532 0.234782
0.018290 0.552344 0.040941
0.145117 0.545948 0.060800
0.271944 0.539553 0.080659
0.398772 0.533157 0.100519
0.525599 0.526762 0.120378
0.652426 0.520366 0.140237
0.779253 0.513971 0.160096
0.906081 0.507576 0.179956
1.000000 0.501180 0.199815
0.031368 0.692992 0.005974
0.158195 0.686597 0.025833
0.285022 0.680201 0.045693
0.411849 0.673806 0.065552
0.538677 0.667411 0.085411
0.665504 0.661015 0.105270
0.792331 0.654620 0.125129
0.919158 0.648224 0.144989
1.000000 0.641829 0.164848
0.044446 0.833641 0.000000
0.171273 0.827246 0.000000
0.298100 0.820850 0.010726
0.424927 0.814455 0.030585
0.551754 0.808059 0.050444
0.678582 0.801664 0.070303
0.805409 0.795268 0.090163
0.932236 0.788873 0.110022
1.000000 0.782478 0.129881
0.057523 0.974290 0.000000
0.184351 0.967894 0.000000
0.311178 0.961499 0.000000
0.438005 0.955103 0.000000
0.564832 0.948708 0.015477
0.691659 0.942313 0.035336
0.818487 0.935917 0.055196
0.945314 0.929522 0.075055
1.000000 0.923126 0.094914
0.070601 1.000000 0.000000
0.197428 1.000000 0.000000
0.324256 1.000000 0.000000
0.451083 1.000000 0.000000
0.577910 1.000000 0.000000
0.704737 1.000000 0.000370
0.831565 1.000000 0.020229
0.958392 1.000000 0.040088
1.000000 1.000000 0.059947
0.000000 0.000000 0.361617
0.058785 0.000000 0.381476
0.185612 0.000000 0.401335
0.312439 0.000000 0.421195
0.439266 0.000000 0.441054
0.566094 0.000000 0.460913
0.692921 0.000000 0.480772
0.819748 0.000000 0.500632
0.946575 0.000000 0.520491
0.000000 0.120146 0.326650
0.071863 0.113751 0.346509
0.198690 0.107355 0.366368
0.325517 0.100960 0.386228
0.452344 0.094564 0.406087
0.579171 0.088169 0.425946
0.705999 0.081774 0.445805
0.832826 0.075378 0.465665
0.959653 0.068983 0.485524
0.000000 0.260795 0.291683
0.084940 0.254399 0.311542
0.211768 0.248004 0.331402
0.338595 0.241609 0.351261
0.465422 0.235213 0.371120
0.592249 0.228818 0.390979
0.719077 0.222422 0.410839
0.845904 0.216027 0.430698
0.972731 0.209632 0.450557
0.000000 0.401444 0.256716
0.098018 0.395048 0.276576
0.224845 0.388653 0.296435
0.351673 0.382257 0.316294
0.478500 0.375862 0.336153
0.605327 0.369466 0.356012
0.732154 0.363071 0.375872
0.858982 0.356676 0.395731
0.985809 0.350280 0.415590
0.000000 0.542092 0.221749
0.111096 0.535697 0.241609
0.237923 0.529301 0.261468
0.364750 0.522906 0.281327
0.491578 0.516511 0.301186
0.618405 0.510115 0.321046
0.745232 0.503720 0.340905
0.872059 0.497324 0.360764
0.998887 0.490929 0.380623
0.000000 0.682741 0.186783
0.124174 0.676346 0.206642
0.251001 0.669950 0.226501
0.377828 0.663555 0.246360
0.504655 0.657159 0.266219
0.631483 0.650764 0.286079
0.758310 0.644368 0.305938
0.885137 0.637973 0.325797
1.000000 0.631578 0.345656
0.010424 0.823390 0.151816
0.137252 0.816994 0.171675
0.264079 0.810599 0.191534
0.390906 0.804203 0.211393
0.517733 0.797808 0.231253
0.644560 0.791413 0.251112
0.771388 0.785017 0.270971
0.898215 0.778622 0.290830
1.000000 0.772226 0.310689
0.023502 0.964038 0.116849
0.150329 0.957643 0.136708
0.277157 0.951248 0.156567
0.403984 0.944852 0.176426
0.530811 0.938457 0.196286
0.657638 0.932061 0.216145
0.784466 0.925666 0.236004
0.911293 0.919270 0.255863
1.000000 0.912875 0.275723
0.036580 1.000000 0.081882
0.163407 1.000000 0.101741
0.290234 1.000000 0.121600
0.417062 1.000000 0.141460
0.543889 1.000000 0.161319
0.670716 1.000000 0.181178
0.797543 1.000000 0.201037
0.924371 1.000000 0.220896
1.000000 1.000000 0.240756
0.000000 0.000000 0.542425
0.024764 0.000000 0.562285
0.151591 0.000000 0.582144
0.278418 0.000000 0.602003
0.405245 0.000000 0.621862
0.532072 0.000000 0.641722
0.658900 0.000000 0.661581
0.785727 0.000000 0.681440
0.912554 0.000000 0.701299
0.000000 0.109895 0.507458
0.037841 0.103499 0.527318
0.164669 0.097104 0.547177
0.291496 0.090709 0.567036
0.418323 0.084313 0.586895
0.545150 0.077918 0.606755
0.671978 0.071522 0.626614
0.798805 0.065127 0.646473
0.925632 0.058731 0.666332
0.000000 0.250543 0.472492
0.050919 0.244148 0.492351
0.177746 0.237753 0.512210
0.304574 0.231357 0.532069
0.431401 0.224962 0.551929
0.558228 0.218566 0.571788
0.685055 0.212171 0.591647
0.811883 0.205776 0.611506
0.938710 0.199380 0.631365
0.000000 0.391192 0.437525
0.063997 0.384797 0.457384
0.190824 0.378401 0.477243
0.317651 0.372006 0.497102
0.444479 0.365611 0.516962
0.571306 0.359215 0.536821
0.698133 0.352820 0.556680
0.824960 0.346424 0.576539
0.951788 0.340029 0.596399
0.000000 0.531841 0.402558
0.077075 0.525445 0.422417
0.203902 0.519050 0.442276
0.330729 0.512655 0.462136
0.457556 0.506259 0.481995
0.584384 0.499864 0.501854
0.711211 0.493468 0.521713
0.838038 0.487073 0.541572
0.964865 0.480678 0.561432
0.000000 0.672490 0.367591
0.090153 0.666094 0.387450
0.216980 0.659699 0.407309
0.343807 0.653303 0.427169
0.470634 0.646908 0.447028
0.597461 0.640513 0.466887
0.724289 0.634117 0.486746
0.851116 0.627722 0.506606
0.977943 0.621326 0.526465
0.000000 0.813138 0.332624
0.103230 0.806743 0.352483
0.230058 0.800347 0.372343
0.356885 0.793952 0.392202
0.483712 0.787557 0.412061
0.610539 0.781161 0.431920
0.737367 0.774766 0.451779
0.864194 0.768370 0.471639
0.991021 0.761975 0.491498
0.000000 0.953787 0.297657
0.116308 0.947392 0.317516
0.243135 0.940996 0.337376
0.369963 0.934601 0.357235
0.496790 0.928205 0.377094
0.623617 0.921810 0.396953
0.750444 0.915415 0.416813
0.877272 0.909019 0.436672
1.000000 0.902624 0.456531
0.002559 1.000000 0.262690
0.129386 1.000000 0.282550
0.256213 1.000000 0.302409
0.383040 1.000000 0.322268
0.509868 1.000000 0.342127
0.636695 1.000000 0.361986
0.763522 1.000000 0.381846
0.890349 1.000000 0.401705
1.000000 1.000000 0.421564
0.000000 0.000000 0.723234
0.000000 0.000000 0.743093
0.117570 0.000000 0.762952
0.244397 0.000000 0.782812
0.371224 0.000000 0.802671
0.498051 0.000000 0.822530
0.624879 0.000000 0.842389
0.751706 0.000000 0.862248
0.878533 0.000000 0.882108
0.000000 0.099643 0.688267
0.003820 0.093248 0.708126
0.130647 0.086853 0.727985
0.257475 0.080457 0.747845
0.384302 0.074062 0.767704
0.511129 0.067666 0.787563
0.637956 0.061271 0.807422
0.764784 0.054876 0.827282
0.891611 0.048480 0.847141
0.000000 0.240292 0.653300
0.016898 0.233897 0.673159
0.143725 0.227501 0.693019
0.270552 0.221106 0.712878
0.397380 0.214711 0.732737
0.524207 0.208315 0.752596
0.651034 0.201920 0.772455
0.777861 0.195524 0.792315
0.904689 0.189129 0.812174
0.000000 0.380941 0.618333
0.029976 0.374545 0.638192
0.156803 0.368150 0.658052
0.283630 0.361755 0.677911
0.410457 0.355359 0.697770
0.537285 0.348964 0.717629
0.664112 0.342568 0.737489
0.790939 0.336173 0.757348
0.917766 0.329778 0.777207
0.000000 0.521590 0.583366
0.043054 0.515194 0.603226
0.169881 0.508799 0.623085
0.296708 0.502403 0.642944
0.423535 0.496008 0.662803
0.550362 0.489613 0.682662
0.677190 0.483217 0.702522
0.804017 0.476822 0.722381
0.930844 0.470426 0.742240
0.000000 0.662238 0.548399
0.056131 0.655843 0.568259
0.182959 0.649447 0.588118
0.309786 0.643052 0.607977
0.436613 0.636657 0.627836
0.563440 0.630261 0.647696
0.690268 0.623866 0.667555
0.817095 0.617470 0.687414
0.943922 0.611075 0.707273
0.000000 0.802887 0.513433
0.069209 0.796492 0.533292
0.196036 0.790096 0.553151
0.322864 0.783701 0.573010
0.449691 0.777305 0.592869
0.576518 0.770910 0.612729
0.703345 0.764515 0.632588
0.830173 0.758119 0.652447
0.957000 0.751724 0.672306
0.000000 0.943536 0.478466
0.082287 0.937140 0.498325
0.209114 0.930745 0.518184
0.335941 0.924349 0.538043
0.462769 0.917954 0.557903
0.589596 0.911559 0.577762
0.716423 0.905163 0.597621
0.843250 0.898768 0.617480
0.970078 0.892372 0.637340
0.000000 1.000000 0.443499
0.095365 1.000000 0.463358
0.222192 1.000000 0.483217
0.349019 1.000000 0.503076
0.475846 1.000000 0.522936
0.602674 1.000000 0.542795
0.729501 1.000000 0.562654
0.856328 1.000000 0.582513
0.983155 1.000000 0.602373
0.000000 0.000000 0.904042
0.000000 0.000000 0.923902
0.083548 0.000000 0.943761
0.210376 0.000000 0.963620
0.337203 0.000000 0.983479
0.464030 0.000000 1.000000
0.590857 0.000000 1.000000
0.717685 0.000000 1.000000
0.844512 0.000000 1.000000
0.000000 0.089392 0.869075
0.000000 0.082997 0.888935
0.096626 0.076601 0.908794
0.223453 0.070206 0.928653
0.350281 0.063810 0.948512
0.477108 0.057415 0.968372
0.603935 0.051020 0.988231
0.730762 0.044624 1.000000
0.857590 0.038229 1.000000
0.000000 0.230041 0.834109
0.000000 0.223645 0.853968
0.109704 0.217250 0.873827
0.236531 0.210855 0.893686
0.363358 0.204459 0.913545
0.490186 0.198064 0.933405
0.617013 0.191668 0.953264
0.743840 0.185273 0.973123
0.870667 0.178878 0.992982
0.000000 0.370690 0.799142
0.000000 0.364294 0.819001
0.122782 0.357899 0.838860
0.249609 0.351503 0.858719
0.376436 0.345108 0.878579
0.503263 0.338712 0.898438
0.630091 0.332317 0.918297
0.756918 0.325922 0.938156
0.883745 0.319526 0.958015
0.000000 0.511338 0.764175
0.009032 0.504943 0.784034
0.135860 0.498547 0.803893
0.262687 0.492152 0.823752
0.389514 0.485757 0.843612
0.516341 0.479361 0.863471
0.643169 0.472966 0.883330
0.769996 0.466570 0.903189
0.896823 0.460175 0.923049
0.000000 0.651987 0.729208
0.022110 0.645592 0.749067
0.148937 0.639196 0.768926
0.275765 0.632801 0.788786
0.402592 0.626405 0.808645
0.529419 0.620010 0.828504
0.656246 0.613615 0.848363
0.783074 0.607219 0.868222
0.909901 0.600824 0.888082
0.000000 0.792636 0.694241
0.035188 0.786240 0.714100
0.162015 0.779845 0.733959
0.288842 0.773449 0.753819
0.415670 0.767054 0.773678
0.542497 0.760659 0.793537
0.669324 0.754263 0.813396
0.796151 0.747868 0.833256
0.922979 0.741472 0.853115
0.000000 0.933284 0.659274
0.048266 0.926889 0.679133
0.175093 0.920494 0.698993
0.301920 0.914098 0.718852
0.428747 0.907703 0.738711
0.555575 0.901307 0.758570
0.682402 0.894912 0.778430
0.809229 0.888517 0.798289
0.936056 0.882121 0.818148
0.000000 1.000000 0.624307
0.061344 1.000000 0.644166
0.188171 1.000000 0.664026
0.314998 1.000000 0.683885
0.441825 1.000000 0.703744
0.568652 1.000000 0.723603
0.695480 1.000000 0.743463
0.822307 1.000000 0.763322
0.949134 1.000000 0.783181
0.000000 0.000000 1.000000
0.000000 0.000000 1.000000
0.049527 0.000000 1.000000
0.176354 0.000000 1.000000
0.303182 0.000000 1.000000
0.430009 0.000000 1.000000
0.556836 0.000000 1.000000
0.683663 0.000000 1.000000
0.810491 0.000000 1.000000
0.000000 0.079141 1.000000
0.000000 0.072745 1.000000
0.062605 0.066350 1.000000
0.189432 0.059955 1.000000
0.316259 0.053559 1.000000
0.443087 0.047164 1.000000
0.569914 0.040768 1.000000
0.696741 0.034373 1.000000
0.823568 0.027978 1.000000
0.000000 0.219790 1.000000
0.000000 0.213394 1.000000
0.075683 0.206999 1.000000
0.202510 0.200603 1.000000
0.329337 0.194208 1.000000
0.456164 0.187812 1.000000
0.582992 0.181417 1.000000
0.709819 0.175022 1.000000
0.836646 0.168626 1.000000
0.000000 0.360438 0.979950
0.000000 0.354043 0.999809
0.088761 0.347647 1.000000
0.215588 0.341252 1.000000
0.342415 0.334857 1.000000
0.469242 0.328461 1.000000
0.596070 0.322066 1.000000
0.722897 0.315670 1.000000
0.849724 0.309275 1.000000
0.000000 0.501087 0.944983
0.000000 0.494692 0.964842
0.101838 0.488296 0.984702
0.228666 0.481901 1.000000
0.355493 0.475505 1.000000
0.482320 0.469110 1.000000
0.609147 0.462714 1.000000
0.735975 0.456319 1.000000
0.862802 0.449924 1.000000
0.000000 0.641736 0.910016
0.000000 0.635340 0.929876
0.114916 0.628945 0.949735
0.241743 0.622549 0.969594
0.368571 0.616154 0.989453
0.495398 0.609759 1.000000
0.622225 0.603363 1.000000
0.749052 0.596968 1.000000
0.875880 0.590572 1.000000
0.000000 0.782384 0.875049
0.001167 0.775989 0.894909
0.127994 0.769594 0.914768
0.254821 0.763198 0.934627
0.381648 0.756803 0.954486
0.508476 0.750407 0.974346
0.635303 0.744012 0.994205
0.762130 0.737616 1.000000
0.888957 0.731221 1.000000
0.000000 0.923033 0.840083
0.014245 0.916638 0.859942
0.141072 0.910242 0.879801
0.267899 0.903847 0.899660
0.394726 0.897451 0.919520
0.521553 0.891056 0.939379
0.648381 0.884661 0.959238
0.775208 0.878265 0.979097
0.902035 0.871870 0.998956
0.000000 1.000000 0.805116
0.027322 1.000000 0.824975
0.154150 1.000000 0.844834
0.280977 1.000000 0.864693
0.407804 1.000000 0.884553
0.534631 1.000000 0.904412
0.661459 1.000000 0.924271
0.788286 1.000000 0.944130
0.915113 1.000000 0.963990
0.000000 0.000000 1.000000
0.000000 0.000000 1.000000
0.015506 0.000000 1.000000
0.142333 0.000000 1.000000
0.269160 0.000000 1.000000
0.395988 0.000000 1.000000
0.522815 0.000000 1.000000
0.649642 0.000000 1.000000
0.776469 0.000000 1.000000
0.000000 0.068889 1.000000
0.000000 0.062494 1.000000
0.028584 0.056099 1.000000
0.155411 0.049703 1.000000
0.282238 0.043308 1.000000
0.409065 0.036912 1.000000
0.535893 0.030517 1.000000
0.662720 0.024122 1.000000
0.789547 0.017726 1.000000
0.000000 0.209538 1.000000
0.000000 0.203143 1.000000
0.041662 0.196747 1.000000
0.168489 0.190352 1.000000
0.295316 0.183957 1.000000
0.422143 0.177561 1.000000
0.548971 0.171166 1.000000
0.675798 0.164770 1.000000
0.802625 0.158375 1.000000
0.000000 0.350187 1.000000
0.000000 0.343791 1.000000
0.054739 0.337396 1.000000
0.181567 0.331001 1.000000
0.308394 0.324605 1.000000
0.435221 0.318210 1.000000
0.562048 0.311814 1.000000
0.688876 0.305419 1.000000
0.815703 0.299024 1.000000
0.000000 0.490836 1.000000
0.000000 0.484440 1.000000
0.067817 0.478045 1.000000
0.194644 0.471649 1.000000
0.321472 0.465254 1.000000
0.448299 0.458859 1.000000
0.575126 0.452463 1.000000
0.701953 0.446068 1.000000
0.828781 0.439672 1.000000
0.000000 0.631484 1.000000
0.000000 0.625089 1.000000
0.080895 0.618694 1.000000
0.207722 0.612298 1.000000
0.334549 0.605903 1.000000
0.461377 0.599507 1.000000
0.588204 0.593112 1.000000
0.715031 0.586716 1.000000
0.841858 0.580321 1.000000
0.000000 0.772133 1.000000
0.000000 0.765738 1.000000
0.093973 0.759342 1.000000
0.220800 0.752947 1.000000
0.347627 0.746551 1.000000
0.474454 0.740156 1.000000
0.601282 0.733761 1.000000
0.728109 0.727365 1.000000
0.854936 0.720970 1.000000
0.000000 0.912782 1.000000
0.000000 0.906386 1.000000
0.107051 0.899991 1.000000
0.233878 0.893596 1.000000
0.360705 0.887200 1.000000
0.487532 0.880805 1.000000
0.614359 0.874409 1.000000
0.741187 0.868014 1.000000
0.868014 0.861618 1.000000
0.000000 1.000000 0.985924
0.000000 1.000000 1.000000
0.120128 1.000000 1.000000
0.246956 1.000000 1.000000
0.373783 1.000000 1.000000
0.500610 1.000000 1.000000
0.627437 1.000000 1.000000
0.754265 1.000000 1.000000
0.881092 1.000000 1.000000
0.000000 0.000000 1.000000
0.000000 0.000000 1.000000
0.000000 0.000000 1.000000
0.108312 0.000000 1.000000
0.235139 0.000000 1.000000
0.361966 0.000000 1.000000
0.488794 0.000000 1.000000
0.615621 0.000000 1.000000
0.742448 0.000000 1.000000
0.000000 0.058638 1.000000
0.000000 0.052243 1.000000
0.000000 0.045847 1.000000
0.121390 0.039452 1.000000
0.248217 0.033057 1.000000
0.375044 0.026661 1.000000
0.501872 0.020266 1.000000
0.628699 0.013870 1.000000
0.755526 0.007475 1.000000
0.000000 0.199287 1.000000
0.000000 0.192891 1.000000
0.007640 0.186496 1.000000
0.134468 0.180101 1.000000
0.261295 0.173705 1.000000
0.388122 0.167310 1.000000
0.514949 0.160914 1.000000
0.641777 0.154519 1.000000
0.768604 0.148124 1.000000
0.000000 0.339936 1.000000
0.000000 0.333540 1.000000
0.020718 0.327145 1.000000
0.147545 0.320749 1.000000
0.274373 0.314354 1.000000
0.401200 0.307959 1.000000
0.528027 0.301563 1.000000
0.654854 0.295168 1.000000
0.781682 0.288772 1.000000
0.000000 0.480584 1.000000
0.000000 0.474189 1.000000
0.033796 0.467793 1.000000
0.160623 0.461398 1.000000
0.287450 0.455003 1.000000
0.414278 0.448607 1.000000
0.541105 0.442212 1.000000
0.667932 0.435816 1.000000
0.794759 0.429421 1.000000
0.000000 0.621233 1.000000
0.000000 0.614838 1.000000
0.046874 0.608442 1.000000
0.173701 0.602047 1.000000
0.300528 0.595651 1.000000
0.427355 0.589256 1.000000
0.554183 0.582861 1.000000
0.681010 0.576465 1.000000
0.807837 0.570070 1.000000
0.000000 0.761882 1.000000
0.000000 0.755486 1.000000
0.059952 0.749091 1.000000
0.186779 0.742695 1.000000
0.313606 0.736300 1.000000
0.440433 0.729905 1.000000
0.567260 0.723509 1.000000
0.694088 0.717114 1.000000
0.820915 0.710718 1.000000
0.000000 0.902530 1.000000
0.000000 0.896135 1.000000
0.073029 0.889740 1.000000
0.199857 0.883344 1.000000
0.326684 0.876949 1.000000
0.453511 0.870553 1.000000
0.580338 0.864158 1.000000
0.707166 0.857763 1.000000
0.833993 0.851367 1.000000
0.000000 1.000000 1.000000
0.000000 1.000000 1.000000
0.086107 1.000000 1.000000
0.212934 1.000000 1.000000
0.339762 1.000000 1.000000
0.466589 1.000000 1.000000
0.593416 1.000000 1.000000
0.720243 0.998411 1.000000
0.847071 0.992016 1.000000
